%
O0000(NC File Based on MasterCAM Software)
(DATE=DD-MM-YY - 19-04-23 TIME=HH:MM - 20:57)

(MATERIAL - ALUMINUM INCH - 2024)
( T1 |  3/8 FLAT ENDMILL | H1 )
( T2 |  1/2 CHAMFER MILL 60 | H2 )
( T3 |  1/16 BALL ENDMILL | H3 )
N100 G20
N110 G0 G17 G40 G49 G80 G90
( FACE THE BILLET )
N120 T1 M6
N130 G0 G90 G54 X-1.666 Y-1.4221 A0. S20000 M3
N140 G43 H1 Z.6
N150 Z.3433
N160 G1 X-1.5729 Y-1.4563 F300.
N170 X-1.5243 Y-1.4742
N180 G2 X-1.4938 Y-1.4938 I-.0291 J-.0792
N190 G1 X-1.4895 Y-1.4972
N200 X-1.4815 Y-1.5037
N210 X-1.4719 Y-1.5114
N220 X-1.4614 Y-1.5198
N230 X-1.4502 Y-1.5285
N240 X-1.4385 Y-1.5375
N250 X-1.4264 Y-1.5466
N260 X-1.414 Y-1.5559
N270 X-1.4012 Y-1.5652
N280 X-1.3882 Y-1.5745
N290 X-1.375 Y-1.5839
N300 X-1.3615 Y-1.5933
N310 X-1.3478 Y-1.6026
N320 X-1.3339 Y-1.6119
N330 X-1.3198 Y-1.6212
N340 X-1.3055 Y-1.6303
N350 X-1.2911 Y-1.6395
N360 X-1.2765 Y-1.6485
N370 X-1.2618 Y-1.6575
N380 X-1.2469 Y-1.6663
N390 X-1.2319 Y-1.6751
N400 X-1.2167 Y-1.6838
N410 X-1.2014 Y-1.6924
N420 X-1.186 Y-1.7009
N430 X-1.1705 Y-1.7092
N440 X-1.1548 Y-1.7175
N450 X-1.139 Y-1.7256
N460 X-1.1231 Y-1.7336
N470 X-1.1071 Y-1.7415
N480 X-1.091 Y-1.7492
N490 X-1.0748 Y-1.7569
N500 X-1.0585 Y-1.7644
N510 X-1.0421 Y-1.7717
N520 X-1.0256 Y-1.779
N530 X-1.009 Y-1.7861
N540 X-.9923 Y-1.793
N550 X-.9755 Y-1.7998
N560 X-.9586 Y-1.8065
N570 X-.9417 Y-1.813
N580 X-.9246 Y-1.8194
N590 X-.9075 Y-1.8256
N600 X-.8903 Y-1.8317
N610 X-.873 Y-1.8376
N620 X-.8557 Y-1.8434
N630 X-.8383 Y-1.849
N640 X-.8208 Y-1.8544
N650 X-.8032 Y-1.8597
N660 X-.7856 Y-1.8649
N670 X-.7679 Y-1.8699
N680 X-.7502 Y-1.8747
N690 X-.7323 Y-1.8794
N700 X-.7145 Y-1.8839
N710 X-.6966 Y-1.8882
N720 X-.6786 Y-1.8924
N730 X-.6606 Y-1.8964
N740 X-.6425 Y-1.9002
N750 X-.6244 Y-1.9039
N760 X-.6062 Y-1.9074
N770 X-.588 Y-1.9108
N780 X-.5697 Y-1.9139
N790 X-.5514 Y-1.9169
N800 X-.5331 Y-1.9198
N810 X-.5147 Y-1.9224
N820 X-.4963 Y-1.9249
N830 X-.4779 Y-1.9272
N840 X-.4594 Y-1.9293
N850 X-.4409 Y-1.9313
N860 X-.4224 Y-1.9331
N870 X-.4039 Y-1.9347
N880 X-.3853 Y-1.9362
N890 X-.3667 Y-1.9374
N900 X-.3481 Y-1.9385
N910 X-.3295 Y-1.9394
N920 X-.3108 Y-1.9401
N930 X-.2922 Y-1.9407
N940 X-.2735 Y-1.9411
N950 X-.2548 Y-1.9413
N960 X-.2361
N970 X-.2174 Y-1.9411
N980 X-.1987 Y-1.9408
N990 X-.18 Y-1.9403
N1000 X-.1613 Y-1.9395
N1010 X-.1426 Y-1.9387
N1020 X-.1239 Y-1.9376
N1030 X-.1052 Y-1.9364
N1040 X-.0865 Y-1.9349
N1050 X-.0678 Y-1.9333
N1060 X-.0492 Y-1.9315
N1070 X-.0305 Y-1.9296
N1080 X-.0118 Y-1.9274
N1090 X.0068 Y-1.9251
N1100 X.0254 Y-1.9225
N1110 X.044 Y-1.9198
N1120 X.0626 Y-1.917
N1130 X.0811 Y-1.9139
N1140 X.0997 Y-1.9106
N1150 X.1182 Y-1.9072
N1160 X.1367 Y-1.9036
N1170 X.1551 Y-1.8998
N1180 X.1735 Y-1.8958
N1190 X.1919 Y-1.8917
N1200 X.2103 Y-1.8873
N1210 X.2286 Y-1.8828
N1220 X.2469 Y-1.8781
N1230 X.2651 Y-1.8732
N1240 X.2833 Y-1.8681
N1250 X.3014 Y-1.8629
N1260 X.3196 Y-1.8574
N1270 X.3376 Y-1.8518
N1280 X.3556 Y-1.846
N1290 X.3736 Y-1.84
N1300 X.3915 Y-1.8339
N1310 X.4094 Y-1.8275
N1320 X.4272 Y-1.821
N1330 X.4449 Y-1.8143
N1340 X.4626 Y-1.8074
N1350 X.4803 Y-1.8003
N1360 X.4978 Y-1.7931
N1370 X.5153 Y-1.7856
N1380 X.5328 Y-1.778
N1390 X.5502 Y-1.7702
N1400 X.5675 Y-1.7623
N1410 X.5847 Y-1.7541
N1420 X.6019 Y-1.7458
N1430 X.619 Y-1.7373
N1440 X.636 Y-1.7288
N1450 X.653 Y-1.7203
N1460 X.6698 Y-1.712
N1470 X.6865 Y-1.7037
N1480 X.7032 Y-1.6954
N1490 X.7198 Y-1.6871
N1500 X.7362 Y-1.6788
N1510 X.7526 Y-1.6704
N1520 X.7689 Y-1.662
N1530 X.7851 Y-1.6536
N1540 X.8012 Y-1.6451
N1550 X.8173 Y-1.6365
N1560 X.8332 Y-1.6279
N1570 X.8491 Y-1.6191
N1580 X.8648 Y-1.6103
N1590 X.8805 Y-1.6013
N1600 X.8961 Y-1.5923
N1610 X.9116 Y-1.5831
N1620 X.927 Y-1.5738
N1630 X.9423 Y-1.5645
N1640 X.9575 Y-1.5549
N1650 X.9726 Y-1.5453
N1660 X.9877 Y-1.5355
N1670 X1.0026 Y-1.5257
N1680 X1.0174 Y-1.5156
N1690 X1.0322 Y-1.5055
N1700 X1.0468 Y-1.4952
N1710 X1.0614 Y-1.4848
N1720 X1.0758 Y-1.4743
N1730 X1.0901 Y-1.4637
N1740 X1.1044 Y-1.4529
N1750 X1.1185 Y-1.4419
N1760 X1.1325 Y-1.4309
N1770 X1.1464 Y-1.4197
N1780 X1.1602 Y-1.4084
N1790 X1.1739 Y-1.397
N1800 X1.1875 Y-1.3854
N1810 X1.2009 Y-1.3737
N1820 X1.2143 Y-1.3619
N1830 X1.2275 Y-1.3499
N1840 X1.2406 Y-1.3379
N1850 X1.2536 Y-1.3257
N1860 X1.2665 Y-1.3133
N1870 X1.2793 Y-1.3009
N1880 X1.2919 Y-1.2883
N1890 X1.3044 Y-1.2756
N1900 X1.3168 Y-1.2628
N1910 X1.3291 Y-1.2499
N1920 X1.3412 Y-1.2368
N1930 X1.3532 Y-1.2237
N1940 X1.3651 Y-1.2104
N1950 X1.3769 Y-1.197
N1960 X1.3885 Y-1.1835
N1970 X1.4 Y-1.1699
N1980 X1.4113 Y-1.1561
N1990 X1.4226 Y-1.1423
N2000 X1.4336 Y-1.1284
N2010 X1.4446 Y-1.1143
N2020 X1.4554 Y-1.1001
N2030 X1.4661 Y-1.0859
N2040 X1.4766 Y-1.0715
N2050 X1.487 Y-1.057
N2060 X1.4973 Y-1.0425
N2070 X1.5074 Y-1.0278
N2080 X1.5173 Y-1.013
N2090 X1.5271 Y-.9981
N2100 X1.5368 Y-.9832
N2110 X1.5463 Y-.9681
N2120 X1.5557 Y-.953
N2130 X1.565 Y-.9377
N2140 X1.574 Y-.9224
N2150 X1.583 Y-.907
N2160 X1.5918 Y-.8915
N2170 X1.6004 Y-.8759
N2180 X1.6089 Y-.8602
N2190 X1.6172 Y-.8445
N2200 X1.6254 Y-.8287
N2210 X1.6334 Y-.8127
N2220 X1.6412 Y-.7968
N2230 X1.6489 Y-.7807
N2240 X1.6565 Y-.7646
N2250 X1.6639 Y-.7483
N2260 X1.6711 Y-.7321
N2270 X1.6782 Y-.7157
N2280 X1.6851 Y-.6993
N2290 X1.6918 Y-.6828
N2300 X1.6984 Y-.6662
N2310 X1.7048 Y-.6496
N2320 X1.7111 Y-.6329
N2330 X1.7172 Y-.6162
N2340 X1.7231 Y-.5994
N2350 X1.7289 Y-.5826
N2360 X1.7345 Y-.5656
N2370 X1.7399 Y-.5487
N2380 X1.7452 Y-.5317
N2390 X1.7503 Y-.5146
N2400 X1.7553 Y-.4975
N2410 X1.76 Y-.4803
N2420 X1.7646 Y-.4631
N2430 X1.7691 Y-.4458
N2440 X1.7734 Y-.4286
N2450 X1.7775 Y-.4112
N2460 X1.7814 Y-.3938
N2470 X1.7851 Y-.3764
N2480 X1.7887 Y-.359
N2490 X1.7922 Y-.3415
N2500 X1.7954 Y-.324
N2510 X1.7985 Y-.3064
N2520 X1.8014 Y-.2888
N2530 X1.8041 Y-.2712
N2540 X1.8067 Y-.2536
N2550 X1.8091 Y-.236
N2560 X1.8113 Y-.2183
N2570 X1.8133 Y-.2006
N2580 X1.8152 Y-.1829
N2590 X1.8169 Y-.1651
N2600 X1.8184 Y-.1474
N2610 X1.8198 Y-.1296
N2620 X1.821 Y-.1118
N2630 X1.822 Y-.0941
N2640 X1.8228 Y-.0763
N2650 X1.8235 Y-.0585
N2660 X1.824 Y-.0406
N2670 X1.8243 Y-.0228
N2680 X1.8244 Y-.005
N2690 Y.0128
N2700 X1.8241 Y.0306
N2710 X1.8238 Y.0484
N2720 X1.8232 Y.0662
N2730 X1.8225 Y.084
N2740 X1.8216 Y.1018
N2750 X1.8205 Y.1196
N2760 X1.8192 Y.1374
N2770 X1.8178 Y.1551
N2780 X1.8162 Y.1729
N2790 X1.8144 Y.1906
N2800 X1.8125 Y.2083
N2810 X1.8103 Y.226
N2820 X1.8081 Y.2437
N2830 X1.8056 Y.2613
N2840 X1.803 Y.2789
N2850 X1.8001 Y.2965
N2860 X1.7972 Y.3141
N2870 X1.794 Y.3316
N2880 X1.7907 Y.3491
N2890 X1.7872 Y.3666
N2900 X1.7835 Y.384
N2910 X1.7797 Y.4014
N2920 X1.7757 Y.4188
N2930 X1.7715 Y.4361
N2940 X1.7672 Y.4534
N2950 X1.7627 Y.4706
N2960 X1.758 Y.4878
N2970 X1.7531 Y.505
N2980 X1.7481 Y.5221
N2990 X1.7429 Y.5391
N3000 X1.7376 Y.5561
N3010 X1.7321 Y.573
N3020 X1.7264 Y.5899
N3030 X1.7205 Y.6068
N3040 X1.7145 Y.6235
N3050 X1.7084 Y.6402
N3060 X1.702 Y.6569
N3070 X1.6955 Y.6735
N3080 X1.6889 Y.69
N3090 X1.6821 Y.7065
N3100 X1.6751 Y.7229
N3110 X1.6679 Y.7392
N3120 X1.6607 Y.7554
N3130 X1.6532 Y.7716
N3140 X1.6456 Y.7877
N3150 X1.6378 Y.8038
N3160 X1.6299 Y.8197
N3170 X1.6218 Y.8356
N3180 X1.6136 Y.8514
N3190 X1.6052 Y.8671
N3200 X1.5966 Y.8827
N3210 X1.5879 Y.8983
N3220 X1.5791 Y.9137
N3230 X1.5701 Y.9291
N3240 X1.5609 Y.9444
N3250 X1.5516 Y.9596
N3260 X1.5422 Y.9747
N3270 X1.5326 Y.9897
N3280 X1.5229 Y1.0046
N3290 X1.513 Y1.0195
N3300 X1.503 Y1.0342
N3310 X1.4928 Y1.0488
N3320 X1.4825 Y1.0634
N3330 X1.472 Y1.0778
N3340 X1.4614 Y1.0921
N3350 X1.4507 Y1.1063
N3360 X1.4398 Y1.1204
N3370 X1.4288 Y1.1344
N3380 X1.4177 Y1.1483
N3390 X1.4064 Y1.1621
N3400 X1.395 Y1.1758
N3410 X1.3834 Y1.1894
N3420 X1.3717 Y1.2028
N3430 X1.3599 Y1.2162
N3440 X1.348 Y1.2294
N3450 X1.3359 Y1.2425
N3460 X1.3237 Y1.2555
N3470 X1.3114 Y1.2683
N3480 X1.2989 Y1.2811
N3490 X1.2864 Y1.2937
N3500 X1.2737 Y1.3062
N3510 X1.2609 Y1.3186
N3520 X1.2479 Y1.3308
N3530 X1.2349 Y1.343
N3540 X1.2217 Y1.355
N3550 X1.2084 Y1.3668
N3560 X1.195 Y1.3786
N3570 X1.1815 Y1.3902
N3580 X1.1679 Y1.4016
N3590 X1.1541 Y1.413
N3600 X1.1403 Y1.4242
N3610 X1.1263 Y1.4352
N3620 X1.1122 Y1.4462
N3630 X1.0981 Y1.457
N3640 X1.0838 Y1.4676
N3650 X1.0694 Y1.4781
N3660 X1.0549 Y1.4885
N3670 X1.0403 Y1.4987
N3680 X1.0256 Y1.5088
N3690 X1.0109 Y1.5188
N3700 X.996 Y1.5286
N3710 X.981 Y1.5382
N3720 X.9659 Y1.5477
N3730 X.9508 Y1.5571
N3740 X.9355 Y1.5663
N3750 X.9202 Y1.5753
N3760 X.9048 Y1.5843
N3770 X.8892 Y1.593
N3780 X.8736 Y1.6016
N3790 X.858 Y1.6101
N3800 X.8422 Y1.6184
N3810 X.8264 Y1.6265
N3820 X.8104 Y1.6345
N3830 X.7944 Y1.6424
N3840 X.7784 Y1.65
N3850 X.7622 Y1.6576
N3860 X.746 Y1.6649
N3870 X.7297 Y1.6721
N3880 X.7133 Y1.6792
N3890 X.6969 Y1.6861
N3900 X.6804 Y1.6928
N3910 X.6638 Y1.6993
N3920 X.6472 Y1.7057
N3930 X.6305 Y1.712
N3940 X.6138 Y1.7181
N3950 X.597 Y1.724
N3960 X.5801 Y1.7297
N3970 X.5632 Y1.7353
N3980 X.5462 Y1.7407
N3990 X.5292 Y1.746
N4000 X.5121 Y1.7511
N4010 X.495 Y1.756
N4020 X.4778 Y1.7607
N4030 X.4606 Y1.7653
N4040 X.4433 Y1.7697
N4050 X.426 Y1.774
N4060 X.4087 Y1.778
N4070 X.3913 Y1.7819
N4080 X.3739 Y1.7857
N4090 X.3564 Y1.7892
N4100 X.339 Y1.7926
N4110 X.3214 Y1.7959
N4120 X.3039 Y1.7989
N4130 X.2863 Y1.8018
N4140 X.2687 Y1.8045
N4150 X.2511 Y1.807
N4160 X.2334 Y1.8094
N4170 X.2157 Y1.8116
N4180 X.198 Y1.8136
N4190 X.1803 Y1.8155
N4200 X.1626 Y1.8171
N4210 X.1448 Y1.8186
N4220 X.127 Y1.82
N4230 X.1093 Y1.8211
N4240 X.0915 Y1.8221
N4250 X.0737 Y1.8229
N4260 X.0559 Y1.8235
N4270 X.0381 Y1.824
N4280 X.0202 Y1.8243
N4290 X.0024 Y1.8244
N4300 X-.0154 Y1.8243
N4310 X-.0332 Y1.8241
N4320 X-.051 Y1.8237
N4330 X-.0688 Y1.8231
N4340 X-.0866 Y1.8223
N4350 X-.1044 Y1.8214
N4360 X-.1222 Y1.8203
N4370 X-.14 Y1.819
N4380 X-.1577 Y1.8176
N4390 X-.1755 Y1.8159
N4400 X-.1932 Y1.8141
N4410 X-.2109 Y1.8122
N4420 X-.2286 Y1.81
N4430 X-.2462 Y1.8077
N4440 X-.2639 Y1.8052
N4450 X-.2815 Y1.8026
N4460 X-.2991 Y1.7997
N4470 X-.3166 Y1.7967
N4480 X-.3342 Y1.7935
N4490 X-.3517 Y1.7902
N4500 X-.3691 Y1.7867
N4510 X-.3866 Y1.783
N4520 X-.404 Y1.7791
N4530 X-.4213 Y1.7751
N4540 X-.4386 Y1.7709
N4550 X-.4559 Y1.7665
N4560 X-.4731 Y1.762
N4570 X-.4903 Y1.7573
N4580 X-.5074 Y1.7524
N4590 X-.5245 Y1.7474
N4600 X-.5416 Y1.7422
N4610 X-.5586 Y1.7368
N4620 X-.5755 Y1.7313
N4630 X-.5924 Y1.7256
N4640 X-.6092 Y1.7197
N4650 X-.626 Y1.7137
N4660 X-.6427 Y1.7075
N4670 X-.6593 Y1.7011
N4680 X-.6759 Y1.6946
N4690 X-.6924 Y1.6879
N4700 X-.7089 Y1.6811
N4710 X-.7252 Y1.6741
N4720 X-.7415 Y1.6669
N4730 X-.7578 Y1.6596
N4740 X-.774 Y1.6521
N4750 X-.7901 Y1.6445
N4760 X-.8061 Y1.6367
N4770 X-.822 Y1.6287
N4780 X-.8379 Y1.6206
N4790 X-.8537 Y1.6124
N4800 X-.8694 Y1.6039
N4810 X-.885 Y1.5954
N4820 X-.9005 Y1.5867
N4830 X-.916 Y1.5778
N4840 X-.9313 Y1.5688
N4850 X-.9466 Y1.5596
N4860 X-.9618 Y1.5503
N4870 X-.9769 Y1.5408
N4880 X-.9919 Y1.5312
N4890 X-1.0068 Y1.5214
N4900 X-1.0216 Y1.5115
N4910 X-1.0363 Y1.5015
N4920 X-1.0509 Y1.4913
N4930 X-1.0655 Y1.481
N4940 X-1.0799 Y1.4705
N4950 X-1.0942 Y1.4599
N4960 X-1.1084 Y1.4491
N4970 X-1.1225 Y1.4382
N4980 X-1.1365 Y1.4272
N4990 X-1.1503 Y1.416
N5000 X-1.1641 Y1.4047
N5010 X-1.1778 Y1.3933
N5020 X-1.1913 Y1.3817
N5030 X-1.2048 Y1.37
N5040 X-1.2181 Y1.3582
N5050 X-1.2313 Y1.3462
N5060 X-1.2444 Y1.3342
N5070 X-1.2573 Y1.3219
N5080 X-1.2702 Y1.3096
N5090 X-1.2829 Y1.2971
N5100 X-1.2955 Y1.2845
N5110 X-1.308 Y1.2718
N5120 X-1.3204 Y1.259
N5130 X-1.3326 Y1.246
N5140 X-1.3447 Y1.233
N5150 X-1.3567 Y1.2198
N5160 X-1.3685 Y1.2065
N5170 X-1.3802 Y1.1931
N5180 X-1.3918 Y1.1795
N5190 X-1.4033 Y1.1659
N5200 X-1.4146 Y1.1521
N5210 X-1.4258 Y1.1382
N5220 X-1.4368 Y1.1243
N5230 X-1.4477 Y1.1102
N5240 X-1.4585 Y1.096
N5250 X-1.4691 Y1.0817
N5260 X-1.4796 Y1.0673
N5270 X-1.49 Y1.0528
N5280 X-1.5002 Y1.0382
N5290 X-1.5103 Y1.0235
N5300 X-1.5202 Y1.0087
N5310 X-1.53 Y.9938
N5320 X-1.5396 Y.9788
N5330 X-1.5491 Y.9637
N5340 X-1.5584 Y.9486
N5350 X-1.5676 Y.9333
N5360 X-1.5766 Y.918
N5370 X-1.5855 Y.9025
N5380 X-1.5943 Y.887
N5390 X-1.6029 Y.8714
N5400 X-1.6113 Y.8557
N5410 X-1.6196 Y.8399
N5420 X-1.6277 Y.8241
N5430 X-1.6357 Y.8081
N5440 X-1.6435 Y.7921
N5450 X-1.6511 Y.776
N5460 X-1.6586 Y.7599
N5470 X-1.666 Y.7436
N5480 X-1.6732 Y.7273
N5490 X-1.6802 Y.7109
N5500 X-1.687 Y.6945
N5510 X-1.6937 Y.678
N5520 X-1.7003 Y.6614
N5530 X-1.7067 Y.6448
N5540 X-1.7129 Y.6281
N5550 X-1.7189 Y.6113
N5560 X-1.7248 Y.5945
N5570 X-1.7305 Y.5777
N5580 X-1.7361 Y.5607
N5590 X-1.7415 Y.5437
N5600 X-1.7467 Y.5267
N5610 X-1.7518 Y.5096
N5620 X-1.7567 Y.4925
N5630 X-1.7614 Y.4753
N5640 X-1.766 Y.4581
N5650 X-1.7703 Y.4408
N5660 X-1.7746 Y.4235
N5670 X-1.7786 Y.4062
N5680 X-1.7825 Y.3888
N5690 X-1.7862 Y.3714
N5700 X-1.7897 Y.3539
N5710 X-1.7931 Y.3364
N5720 X-1.7963 Y.3189
N5730 X-1.7993 Y.3013
N5740 X-1.8022 Y.2837
N5750 X-1.8049 Y.2661
N5760 X-1.8074 Y.2485
N5770 X-1.8097 Y.2308
N5780 X-1.8119 Y.2131
N5790 X-1.8139 Y.1954
N5800 X-1.8157 Y.1777
N5810 X-1.8174 Y.16
N5820 X-1.8189 Y.1422
N5830 X-1.8202 Y.1245
N5840 X-1.8213 Y.1067
N5850 X-1.8222 Y.0889
N5860 X-1.823 Y.0711
N5870 X-1.8236 Y.0533
N5880 X-1.8241 Y.0355
N5890 X-1.8243 Y.0177
N5900 X-1.8244 Y-.0002
N5910 X-1.8243 Y-.018
N5920 X-1.8241 Y-.0358
N5930 X-1.8236 Y-.0536
N5940 X-1.823 Y-.0714
N5950 X-1.8222 Y-.0892
N5960 X-1.8213 Y-.107
N5970 X-1.8201 Y-.1248
N5980 X-1.8188 Y-.1425
N5990 X-1.8173 Y-.1603
N6000 X-1.8157 Y-.178
N6010 X-1.8139 Y-.1958
N6020 X-1.8119 Y-.2135
N6030 X-1.8097 Y-.2311
N6040 X-1.8074 Y-.2488
N6050 X-1.8048 Y-.2664
N6060 X-1.8022 Y-.284
N6070 X-1.7993 Y-.3016
N6080 X-1.7963 Y-.3192
N6090 X-1.7931 Y-.3367
N6100 X-1.7897 Y-.3542
N6110 X-1.7861 Y-.3717
N6120 X-1.7824 Y-.3891
N6130 X-1.7785 Y-.4065
N6140 X-1.7745 Y-.4238
N6150 X-1.7703 Y-.4411
N6160 X-1.7659 Y-.4584
N6170 X-1.7613 Y-.4756
N6180 X-1.7566 Y-.4928
N6190 X-1.7517 Y-.5099
N6200 X-1.7466 Y-.527
N6210 X-1.7414 Y-.544
N6220 X-1.736 Y-.561
N6230 X-1.7304 Y-.5779
N6240 X-1.7247 Y-.5948
N6250 X-1.7188 Y-.6116
N6260 X-1.7128 Y-.6284
N6270 X-1.7066 Y-.6451
N6280 X-1.7002 Y-.6617
N6290 X-1.6936 Y-.6783
N6300 X-1.6869 Y-.6948
N6310 X-1.6801 Y-.7112
N6320 X-1.673 Y-.7276
N6330 X-1.6658 Y-.7439
N6340 X-1.6585 Y-.7601
N6350 X-1.651 Y-.7763
N6360 X-1.6433 Y-.7924
N6370 X-1.6355 Y-.8084
N6380 X-1.6276 Y-.8243
N6390 X-1.6194 Y-.8402
N6400 X-1.6111 Y-.856
N6410 X-1.6027 Y-.8716
N6420 X-1.5941 Y-.8873
N6430 X-1.5854 Y-.9028
N6440 X-1.5765 Y-.9182
N6450 X-1.5674 Y-.9336
N6460 X-1.5583 Y-.9488
N6470 X-1.5489 Y-.964
N6480 X-1.5394 Y-.9791
N6490 X-1.5298 Y-.9941
N6500 X-1.52 Y-1.009
N6510 X-1.5101 Y-1.0238
N6520 X-1.5 Y-1.0385
N6530 X-1.4898 Y-1.053
N6540 X-1.4795 Y-1.0675
N6550 X-1.469 Y-1.0819
N6560 X-1.4583 Y-1.0962
N6570 X-1.4476 Y-1.1104
N6580 X-1.4366 Y-1.1245
N6590 X-1.4256 Y-1.1385
N6600 X-1.4144 Y-1.1523
N6610 X-1.4031 Y-1.1661
N6620 X-1.3922 Y-1.179
N6630 X-1.3812 Y-1.1914
N6640 X-1.3699 Y-1.2038
N6650 X-1.3583 Y-1.216
N6660 X-1.3464 Y-1.228
N6670 X-1.3342 Y-1.2399
N6680 X-1.3217 Y-1.2517
N6690 X-1.3091 Y-1.2633
N6700 X-1.2962 Y-1.2747
N6710 X-1.2831 Y-1.286
N6720 X-1.2697 Y-1.2971
N6730 X-1.2563 Y-1.3081
N6740 X-1.2426 Y-1.3189
N6750 X-1.2287 Y-1.3295
N6760 X-1.2147 Y-1.34
N6770 X-1.2006 Y-1.3503
N6780 X-1.1862 Y-1.3604
N6790 X-1.1718 Y-1.3704
N6800 X-1.1572 Y-1.3802
N6810 X-1.1425 Y-1.3899
N6820 X-1.1276 Y-1.3994
N6830 X-1.1127 Y-1.4087
N6840 X-1.0976 Y-1.4179
N6850 X-1.0824 Y-1.4269
N6860 X-1.0671 Y-1.4357
N6870 X-1.0517 Y-1.4444
N6880 X-1.0362 Y-1.4529
N6890 X-1.0206 Y-1.4612
N6900 X-1.0049 Y-1.4693
N6910 X-.9891 Y-1.4773
N6920 X-.9732 Y-1.4851
N6930 X-.9572 Y-1.4928
N6940 X-.9412 Y-1.5003
N6950 X-.925 Y-1.5076
N6960 X-.9088 Y-1.5147
N6970 X-.8925 Y-1.5216
N6980 X-.8761 Y-1.5284
N6990 X-.8597 Y-1.535
N7000 X-.8432 Y-1.5415
N7010 X-.8266 Y-1.5477
N7020 X-.8099 Y-1.5538
N7030 X-.7932 Y-1.5597
N7040 X-.7764 Y-1.5655
N7050 X-.7596 Y-1.571
N7060 X-.7427 Y-1.5764
N7070 X-.7257 Y-1.5816
N7080 X-.7087 Y-1.5866
N7090 X-.6917 Y-1.5914
N7100 X-.6746 Y-1.5961
N7110 X-.6574 Y-1.6006
N7120 X-.6402 Y-1.6049
N7130 X-.6229 Y-1.609
N7140 X-.6056 Y-1.6129
N7150 X-.5883 Y-1.6166
N7160 X-.5709 Y-1.6202
N7170 X-.5535 Y-1.6236
N7180 X-.5361 Y-1.6268
N7190 X-.5186 Y-1.6298
N7200 X-.5011 Y-1.6326
N7210 X-.4836 Y-1.6353
N7220 X-.466 Y-1.6377
N7230 X-.4484 Y-1.64
N7240 X-.4308 Y-1.6421
N7250 X-.4132 Y-1.644
N7260 X-.3956 Y-1.6457
N7270 X-.3779 Y-1.6472
N7280 X-.3602 Y-1.6485
N7290 X-.3425 Y-1.6497
N7300 X-.3248 Y-1.6506
N7310 X-.3071 Y-1.6514
N7320 X-.2894 Y-1.652
N7330 X-.2717 Y-1.6523
N7340 X-.254 Y-1.6525
N7350 X-.2363
N7360 X-.2185 Y-1.6524
N7370 X-.2008 Y-1.652
N7380 X-.1831 Y-1.6514
N7390 X-.1654 Y-1.6507
N7400 X-.1477 Y-1.6497
N7410 X-.13 Y-1.6486
N7420 X-.1124 Y-1.6473
N7430 X-.0947 Y-1.6458
N7440 X-.0771 Y-1.6441
N7450 X-.0595 Y-1.6422
N7460 X-.0419 Y-1.6401
N7470 X-.0243 Y-1.6379
N7480 X-.0068 Y-1.6354
N7490 X.0107 Y-1.6328
N7500 X.0282 Y-1.6299
N7510 X.0456 Y-1.6269
N7520 X.063 Y-1.6237
N7530 X.0804 Y-1.6203
N7540 X.0978 Y-1.6167
N7550 X.115 Y-1.6129
N7560 X.1323 Y-1.609
N7570 X.1495 Y-1.6048
N7580 X.1667 Y-1.6005
N7590 X.1838 Y-1.5959
N7600 X.2008 Y-1.5912
N7610 X.2178 Y-1.5863
N7620 X.2348 Y-1.5813
N7630 X.2517 Y-1.576
N7640 X.2685 Y-1.5705
N7650 X.2853 Y-1.5649
N7660 X.302 Y-1.5591
N7670 X.3186 Y-1.5531
N7680 X.3352 Y-1.5469
N7690 X.3517 Y-1.5405
N7700 X.3683 Y-1.5339
N7710 X.3849 Y-1.5272
N7720 X.4015 Y-1.5202
N7730 X.4182 Y-1.5131
N7740 X.4349 Y-1.5059
N7750 X.4515 Y-1.4985
N7760 X.4682 Y-1.4911
N7770 X.4848 Y-1.4835
N7780 X.5014 Y-1.4759
N7790 X.518 Y-1.4682
N7800 X.5345 Y-1.4604
N7810 X.5509 Y-1.4525
N7820 X.5673 Y-1.4445
N7830 X.5836 Y-1.4365
N7840 X.5999 Y-1.4283
N7850 X.616 Y-1.4201
N7860 X.6321 Y-1.4118
N7870 X.6481 Y-1.4033
N7880 X.6641 Y-1.3948
N7890 X.6799 Y-1.3862
N7900 X.6957 Y-1.3774
N7910 X.7113 Y-1.3686
N7920 X.7269 Y-1.3596
N7930 X.7424 Y-1.3505
N7940 X.7577 Y-1.3413
N7950 X.773 Y-1.332
N7960 X.7882 Y-1.3225
N7970 X.8032 Y-1.3129
N7980 X.8182 Y-1.3032
N7990 X.833 Y-1.2933
N8000 X.8478 Y-1.2833
N8010 X.8624 Y-1.2732
N8020 X.8769 Y-1.2629
N8030 X.8913 Y-1.2525
N8040 X.9056 Y-1.242
N8050 X.9197 Y-1.2313
N8060 X.9338 Y-1.2204
N8070 X.9477 Y-1.2095
N8080 X.9615 Y-1.1983
N8090 X.9752 Y-1.1871
N8100 X.9887 Y-1.1757
N8110 X1.0021 Y-1.1641
N8120 X1.0154 Y-1.1524
N8130 X1.0285 Y-1.1406
N8140 X1.0416 Y-1.1286
N8150 X1.0544 Y-1.1165
N8160 X1.0672 Y-1.1043
N8170 X1.0797 Y-1.0919
N8180 X1.0922 Y-1.0793
N8190 X1.1045 Y-1.0667
N8200 X1.1167 Y-1.0538
N8210 X1.1287 Y-1.0409
N8220 X1.1406 Y-1.0278
N8230 X1.1523 Y-1.0146
N8240 X1.1639 Y-1.0013
N8250 X1.1753 Y-.9878
N8260 X1.1865 Y-.9743
N8270 X1.1976 Y-.9605
N8280 X1.2086 Y-.9467
N8290 X1.2194 Y-.9327
N8300 X1.23 Y-.9187
N8310 X1.2405 Y-.9044
N8320 X1.2508 Y-.8901
N8330 X1.2609 Y-.8757
N8340 X1.2709 Y-.8611
N8350 X1.2807 Y-.8465
N8360 X1.2903 Y-.8317
N8370 X1.2998 Y-.8168
N8380 X1.3091 Y-.8018
N8390 X1.3182 Y-.7867
N8400 X1.3272 Y-.7715
N8410 X1.3359 Y-.7562
N8420 X1.3445 Y-.7408
N8430 X1.353 Y-.7253
N8440 X1.3612 Y-.7097
N8450 X1.3693 Y-.694
N8460 X1.3771 Y-.6782
N8470 X1.3848 Y-.6624
N8480 X1.3924 Y-.6464
N8490 X1.3997 Y-.6304
N8500 X1.4068 Y-.6143
N8510 X1.4138 Y-.598
N8520 X1.4206 Y-.5818
N8530 X1.4272 Y-.5654
N8540 X1.4336 Y-.549
N8550 X1.4398 Y-.5325
N8560 X1.4458 Y-.5159
N8570 X1.4516 Y-.4992
N8580 X1.4573 Y-.4825
N8590 X1.4627 Y-.4657
N8600 X1.468 Y-.4489
N8610 X1.473 Y-.432
N8620 X1.4779 Y-.4151
N8630 X1.4826 Y-.3981
N8640 X1.4871 Y-.381
N8650 X1.4913 Y-.3639
N8660 X1.4954 Y-.3467
N8670 X1.4993 Y-.3295
N8680 X1.503 Y-.3123
N8690 X1.5065 Y-.295
N8700 X1.5098 Y-.2777
N8710 X1.5129 Y-.2603
N8720 X1.5157 Y-.2429
N8730 X1.5184 Y-.2255
N8740 X1.5209 Y-.208
N8750 X1.5232 Y-.1905
N8760 X1.5253 Y-.173
N8770 X1.5272 Y-.1555
N8780 X1.5289 Y-.1379
N8790 X1.5304 Y-.1203
N8800 X1.5316 Y-.1028
N8810 X1.5327 Y-.0851
N8820 X1.5336 Y-.0675
N8830 X1.5343 Y-.0499
N8840 X1.5347 Y-.0323
N8850 X1.535 Y-.0146
N8860 X1.5351 Y.003
N8870 X1.5349 Y.0206
N8880 X1.5346 Y.0383
N8890 X1.5341 Y.0559
N8900 X1.5333 Y.0735
N8910 X1.5324 Y.0911
N8920 X1.5312 Y.1087
N8930 X1.5299 Y.1263
N8940 X1.5283 Y.1439
N8950 X1.5266 Y.1614
N8960 X1.5246 Y.1789
N8970 X1.5225 Y.1965
N8980 X1.5201 Y.2139
N8990 X1.5175 Y.2314
N9000 X1.5148 Y.2488
N9010 X1.5118 Y.2662
N9020 X1.5087 Y.2835
N9030 X1.5053 Y.3009
N9040 X1.5018 Y.3181
N9050 X1.498 Y.3354
N9060 X1.494 Y.3526
N9070 X1.4899 Y.3697
N9080 X1.4856 Y.3868
N9090 X1.481 Y.4038
N9100 X1.4763 Y.4208
N9110 X1.4713 Y.4378
N9120 X1.4662 Y.4546
N9130 X1.4609 Y.4714
N9140 X1.4554 Y.4882
N9150 X1.4497 Y.5049
N9160 X1.4438 Y.5215
N9170 X1.4377 Y.5381
N9180 X1.4314 Y.5545
N9190 X1.425 Y.5709
N9200 X1.4183 Y.5873
N9210 X1.4115 Y.6035
N9220 X1.4044 Y.6197
N9230 X1.3972 Y.6358
N9240 X1.3898 Y.6518
N9250 X1.3822 Y.6677
N9260 X1.3745 Y.6836
N9270 X1.3665 Y.6993
N9280 X1.3584 Y.715
N9290 X1.3501 Y.7305
N9300 X1.3416 Y.746
N9310 X1.333 Y.7614
N9320 X1.3241 Y.7766
N9330 X1.3151 Y.7918
N9340 X1.3059 Y.8069
N9350 X1.2966 Y.8218
N9360 X1.2871 Y.8366
N9370 X1.2774 Y.8514
N9380 X1.2675 Y.866
N9390 X1.2574 Y.8805
N9400 X1.2473 Y.8949
N9410 X1.2369 Y.9092
N9420 X1.2264 Y.9233
N9430 X1.2157 Y.9373
N9440 X1.2048 Y.9513
N9450 X1.1938 Y.965
N9460 X1.1827 Y.9787
N9470 X1.1713 Y.9922
N9480 X1.1599 Y1.0056
N9490 X1.1482 Y1.0189
N9500 X1.1364 Y1.032
N9510 X1.1245 Y1.045
N9520 X1.1124 Y1.0578
N9530 X1.1002 Y1.0705
N9540 X1.0878 Y1.0831
N9550 X1.0753 Y1.0955
N9560 X1.0627 Y1.1078
N9570 X1.0499 Y1.1199
N9580 X1.0369 Y1.1319
N9590 X1.0239 Y1.1438
N9600 X1.0106 Y1.1555
N9610 X.9973 Y1.167
N9620 X.9838 Y1.1784
N9630 X.9702 Y1.1896
N9640 X.9565 Y1.2007
N9650 X.9426 Y1.2116
N9660 X.9287 Y1.2223
N9670 X.9145 Y1.2329
N9680 X.9003 Y1.2433
N9690 X.886 Y1.2536
N9700 X.8715 Y1.2637
N9710 X.8569 Y1.2736
N9720 X.8422 Y1.2834
N9730 X.8274 Y1.293
N9740 X.8125 Y1.3024
N9750 X.7975 Y1.3116
N9760 X.7824 Y1.3207
N9770 X.7672 Y1.3296
N9780 X.7518 Y1.3384
N9790 X.7364 Y1.3469
N9800 X.7209 Y1.3553
N9810 X.7053 Y1.3635
N9820 X.6896 Y1.3715
N9830 X.6738 Y1.3793
N9840 X.6579 Y1.387
N9850 X.6419 Y1.3944
N9860 X.6258 Y1.4017
N9870 X.6097 Y1.4088
N9880 X.5935 Y1.4157
N9890 X.5772 Y1.4224
N9900 X.5608 Y1.429
N9910 X.5443 Y1.4353
N9920 X.5278 Y1.4415
N9930 X.5112 Y1.4475
N9940 X.4945 Y1.4532
N9950 X.4778 Y1.4588
N9960 X.461 Y1.4642
N9970 X.4442 Y1.4694
N9980 X.4273 Y1.4744
N9990 X.4103 Y1.4792
N100 X.3933 Y1.4839
N110 X.3762 Y1.4883
N120 X.3591 Y1.4925
N130 X.3419 Y1.4965
N140 X.3247 Y1.5004
N150 X.3074 Y1.504
N160 X.2901 Y1.5074
N170 X.2728 Y1.5107
N180 X.2554 Y1.5137
N190 X.238 Y1.5165
N200 X.2206 Y1.5192
N210 X.2031 Y1.5216
N220 X.1856 Y1.5238
N230 X.1681 Y1.5259
N240 X.1505 Y1.5277
N250 X.133 Y1.5293
N260 X.1154 Y1.5307
N270 X.0978 Y1.532
N280 X.0802 Y1.533
N290 X.0626 Y1.5338
N300 X.045 Y1.5344
N310 X.0273 Y1.5348
N320 X.0097 Y1.535
N330 X-.008 Y1.5351
N340 X-.0256 Y1.5349
N350 X-.0432 Y1.5345
N360 X-.0608 Y1.5339
N370 X-.0785 Y1.5331
N380 X-.0961 Y1.5321
N390 X-.1137 Y1.5309
N400 X-.1313 Y1.5295
N410 X-.1488 Y1.5279
N420 X-.1664 Y1.526
N430 X-.1839 Y1.524
N440 X-.2014 Y1.5218
N450 X-.2189 Y1.5194
N460 X-.2363 Y1.5168
N470 X-.2537 Y1.514
N480 X-.2711 Y1.511
N490 X-.2884 Y1.5077
N500 X-.3057 Y1.5043
N510 X-.323 Y1.5007
N520 X-.3402 Y1.4969
N530 X-.3574 Y1.4929
N540 X-.3745 Y1.4887
N550 X-.3916 Y1.4843
N560 X-.4086 Y1.4797
N570 X-.4256 Y1.4749
N580 X-.4425 Y1.4699
N590 X-.4594 Y1.4647
N600 X-.4762 Y1.4594
N610 X-.4929 Y1.4538
N620 X-.5096 Y1.448
N630 X-.5262 Y1.4421
N640 X-.5427 Y1.4359
N650 X-.5592 Y1.4296
N660 X-.5756 Y1.4231
N670 X-.5919 Y1.4164
N680 X-.6081 Y1.4095
N690 X-.6243 Y1.4024
N700 X-.6403 Y1.3952
N710 X-.6563 Y1.3877
N720 X-.6722 Y1.3801
N730 X-.688 Y1.3723
N740 X-.7037 Y1.3643
N750 X-.7194 Y1.3561
N760 X-.7349 Y1.3477
N770 X-.7503 Y1.3392
N780 X-.7657 Y1.3305
N790 X-.7809 Y1.3216
N800 X-.796 Y1.3125
N810 X-.8111 Y1.3033
N820 X-.826 Y1.2939
N830 X-.8408 Y1.2843
N840 X-.8555 Y1.2746
N850 X-.8701 Y1.2647
N860 X-.8846 Y1.2546
N870 X-.8989 Y1.2444
N880 X-.9132 Y1.2339
N890 X-.9273 Y1.2234
N900 X-.9413 Y1.2126
N910 X-.9551 Y1.2017
N920 X-.9689 Y1.1907
N930 X-.9825 Y1.1795
N940 X-.996 Y1.1681
N950 X-1.0093 Y1.1566
N960 X-1.0226 Y1.1449
N970 X-1.0356 Y1.1331
N980 X-1.0486 Y1.1211
N990 X-1.0614 Y1.109
N1000 X-1.0741 Y1.0967
N1010 X-1.0866 Y1.0843
N1020 X-1.099 Y1.0718
N1030 X-1.1112 Y1.0591
N1040 X-1.1233 Y1.0462
N1050 X-1.1353 Y1.0333
N1060 X-1.1471 Y1.0201
N1070 X-1.1587 Y1.0069
N1080 X-1.1702 Y.9935
N1090 X-1.1815 Y.98
N1100 X-1.1927 Y.9664
N1110 X-1.2037 Y.9526
N1120 X-1.2146 Y.9387
N1130 X-1.2253 Y.9247
N1140 X-1.2359 Y.9106
N1150 X-1.2462 Y.8963
N1160 X-1.2565 Y.8819
N1170 X-1.2665 Y.8674
N1180 X-1.2764 Y.8528
N1190 X-1.2861 Y.8381
N1200 X-1.2956 Y.8233
N1210 X-1.305 Y.8083
N1220 X-1.3142 Y.7933
N1230 X-1.3232 Y.7781
N1240 X-1.3321 Y.7629
N1250 X-1.3408 Y.7475
N1260 X-1.3493 Y.7321
N1270 X-1.3576 Y.7165
N1280 X-1.3657 Y.7009
N1290 X-1.3737 Y.6851
N1300 X-1.3815 Y.6693
N1310 X-1.3891 Y.6534
N1320 X-1.3965 Y.6374
N1330 X-1.4037 Y.6213
N1340 X-1.4108 Y.6051
N1350 X-1.4176 Y.5889
N1360 X-1.4243 Y.5726
N1370 X-1.4308 Y.5562
N1380 X-1.4371 Y.5397
N1390 X-1.4432 Y.5231
N1400 X-1.4491 Y.5065
N1410 X-1.4548 Y.4898
N1420 X-1.4604 Y.4731
N1430 X-1.4657 Y.4563
N1440 X-1.4708 Y.4394
N1450 X-1.4758 Y.4225
N1460 X-1.4806 Y.4055
N1470 X-1.4851 Y.3885
N1480 X-1.4895 Y.3714
N1490 X-1.4936 Y.3542
N1500 X-1.4976 Y.3371
N1510 X-1.5014 Y.3198
N1520 X-1.505 Y.3026
N1530 X-1.5083 Y.2852
N1540 X-1.5115 Y.2679
N1550 X-1.5145 Y.2505
N1560 X-1.5173 Y.2331
N1570 X-1.5199 Y.2157
N1580 X-1.5222 Y.1982
N1590 X-1.5244 Y.1807
N1600 X-1.5264 Y.1632
N1610 X-1.5282 Y.1456
N1620 X-1.5297 Y.128
N1630 X-1.5311 Y.1105
N1640 X-1.5323 Y.0928
N1650 X-1.5332 Y.0752
N1660 X-1.534 Y.0576
N1670 X-1.5346 Y.04
N1680 X-1.5349 Y.0224
N1690 X-1.5351 Y.0047
N1700 X-1.535 Y-.0129
N1710 X-1.5348 Y-.0305
N1720 X-1.5343 Y-.0482
N1730 X-1.5337 Y-.0658
N1740 X-1.5328 Y-.0834
N1750 X-1.5318 Y-.101
N1760 X-1.5305 Y-.1186
N1770 X-1.529 Y-.1362
N1780 X-1.5274 Y-.1537
N1790 X-1.5255 Y-.1713
N1800 X-1.5234 Y-.1888
N1810 X-1.5212 Y-.2063
N1820 X-1.5187 Y-.2238
N1830 X-1.516 Y-.2412
N1840 X-1.5131 Y-.2586
N1850 X-1.5101 Y-.276
N1860 X-1.5068 Y-.2933
N1870 X-1.5033 Y-.3106
N1880 X-1.4997 Y-.3278
N1890 X-1.4958 Y-.345
N1900 X-1.4917 Y-.3622
N1910 X-1.4875 Y-.3793
N1920 X-1.483 Y-.3964
N1930 X-1.4784 Y-.4134
N1940 X-1.4735 Y-.4303
N1950 X-1.4685 Y-.4472
N1960 X-1.4632 Y-.4641
N1970 X-1.4578 Y-.4809
N1980 X-1.4522 Y-.4976
N1990 X-1.4464 Y-.5142
N2000 X-1.4404 Y-.5308
N2010 X-1.4342 Y-.5473
N2020 X-1.4278 Y-.5638
N2030 X-1.4212 Y-.5802
N2040 X-1.4145 Y-.5964
N2050 X-1.4075 Y-.6126
N2060 X-1.4004 Y-.6288
N2070 X-1.3931 Y-.6448
N2080 X-1.3856 Y-.6608
N2090 X-1.3779 Y-.6767
N2100 X-1.37 Y-.6925
N2110 X-1.362 Y-.7081
N2120 X-1.3538 Y-.7237
N2130 X-1.3454 Y-.7393
N2140 X-1.3368 Y-.7547
N2150 X-1.328 Y-.77
N2160 X-1.3191 Y-.7852
N2170 X-1.31 Y-.8003
N2180 X-1.3007 Y-.8153
N2190 X-1.2912 Y-.8302
N2200 X-1.2816 Y-.8449
N2210 X-1.2718 Y-.8596
N2220 X-1.2619 Y-.8741
N2230 X-1.2519 Y-.8883
N2240 X-1.2418 Y-.9022
N2250 X-1.2315 Y-.9158
N2260 X-1.2211 Y-.9293
N2270 X-1.2105 Y-.9424
N2280 X-1.1996 Y-.9554
N2290 X-1.1885 Y-.9682
N2300 X-1.1772 Y-.9807
N2310 X-1.1656 Y-.9931
N2320 X-1.1538 Y-1.0053
N2330 X-1.1418 Y-1.0173
N2340 X-1.1296 Y-1.029
N2350 X-1.1171 Y-1.0406
N2360 X-1.1044 Y-1.052
N2370 X-1.0915 Y-1.0632
N2380 X-1.0784 Y-1.0742
N2390 X-1.0651 Y-1.085
N2400 X-1.0516 Y-1.0956
N2410 X-1.038 Y-1.1061
N2420 X-1.0241 Y-1.1163
N2430 X-1.0101 Y-1.1263
N2440 X-.9959 Y-1.1361
N2450 X-.9815 Y-1.1458
N2460 X-.967 Y-1.1552
N2470 X-.9523 Y-1.1644
N2480 X-.9375 Y-1.1734
N2490 X-.9225 Y-1.1823
N2500 X-.9074 Y-1.1909
N2510 X-.8922 Y-1.1993
N2520 X-.8769 Y-1.2075
N2530 X-.8614 Y-1.2155
N2540 X-.8458 Y-1.2233
N2550 X-.8301 Y-1.2309
N2560 X-.8143 Y-1.2383
N2570 X-.7984 Y-1.2455
N2580 X-.7824 Y-1.2525
N2590 X-.7663 Y-1.2592
N2600 X-.7501 Y-1.2658
N2610 X-.7338 Y-1.2721
N2620 X-.7175 Y-1.2783
N2630 X-.701 Y-1.2842
N2640 X-.6845 Y-1.2899
N2650 X-.6679 Y-1.2954
N2660 X-.6512 Y-1.3007
N2670 X-.6345 Y-1.3058
N2680 X-.6177 Y-1.3106
N2690 X-.6008 Y-1.3153
N2700 X-.5839 Y-1.3197
N2710 X-.5669 Y-1.3239
N2720 X-.5498 Y-1.3279
N2730 X-.5327 Y-1.3317
N2740 X-.5156 Y-1.3353
N2750 X-.4984 Y-1.3386
N2760 X-.4812 Y-1.3418
N2770 X-.4639 Y-1.3447
N2780 X-.4466 Y-1.3474
N2790 X-.4293 Y-1.3498
N2800 X-.4119 Y-1.3521
N2810 X-.3946 Y-1.3541
N2820 X-.3771 Y-1.3559
N2830 X-.3597 Y-1.3575
N2840 X-.3423 Y-1.3589
N2850 X-.3248 Y-1.36
N2860 X-.3073 Y-1.3609
N2870 X-.2898 Y-1.3616
N2880 X-.2723 Y-1.3621
N2890 X-.2548 Y-1.3623
N2900 X-.2374
N2910 X-.2199 Y-1.3621
N2920 X-.2024 Y-1.3617
N2930 X-.1849 Y-1.361
N2940 X-.1674 Y-1.3601
N2950 X-.15 Y-1.359
N2960 X-.1325 Y-1.3577
N2970 X-.1151 Y-1.3562
N2980 X-.0977 Y-1.3544
N2990 X-.0804 Y-1.3524
N3000 X-.063 Y-1.3501
N3010 X-.0457 Y-1.3477
N3020 X-.0284 Y-1.345
N3030 X-.0112 Y-1.3421
N3040 X.006 Y-1.339
N3050 X.0231 Y-1.3356
N3060 X.0402 Y-1.3321
N3070 X.0573 Y-1.3283
N3080 X.0743 Y-1.3243
N3090 X.0912 Y-1.32
N3100 X.1081 Y-1.3156
N3110 X.125 Y-1.3109
N3120 X.1418 Y-1.306
N3130 X.1586 Y-1.3008
N3140 X.1754 Y-1.2955
N3150 X.1922 Y-1.2899
N3160 X.209 Y-1.2842
N3170 X.2257 Y-1.2782
N3180 X.2425 Y-1.2721
N3190 X.2592 Y-1.2658
N3200 X.2759 Y-1.2594
N3210 X.2926 Y-1.2528
N3220 X.3093 Y-1.246
N3230 X.3259 Y-1.2391
N3240 X.3425 Y-1.2321
N3250 X.359 Y-1.2249
N3260 X.3755 Y-1.2176
N3270 X.3919 Y-1.2102
N3280 X.4082 Y-1.2026
N3290 X.4245 Y-1.195
N3300 X.4407 Y-1.1871
N3310 X.4568 Y-1.1792
N3320 X.4728 Y-1.1712
N3330 X.4888 Y-1.163
N3340 X.5046 Y-1.1547
N3350 X.5204 Y-1.1462
N3360 X.5361 Y-1.1376
N3370 X.5516 Y-1.1289
N3380 X.5671 Y-1.1201
N3390 X.5825 Y-1.1111
N3400 X.5977 Y-1.1019
N3410 X.6128 Y-1.0926
N3420 X.6278 Y-1.0832
N3430 X.6427 Y-1.0736
N3440 X.6575 Y-1.0639
N3450 X.6721 Y-1.054
N3460 X.6866 Y-1.044
N3470 X.701 Y-1.0338
N3480 X.7152 Y-1.0234
N3490 X.7293 Y-1.0129
N3500 X.7432 Y-1.0023
N3510 X.7571 Y-.9914
N3520 X.7707 Y-.9804
N3530 X.7843 Y-.9693
N3540 X.7976 Y-.958
N3550 X.8108 Y-.9465
N3560 X.8239 Y-.9349
N3570 X.8368 Y-.9231
N3580 X.8495 Y-.9111
N3590 X.8621 Y-.899
N3600 X.8745 Y-.8867
N3610 X.8868 Y-.8743
N3620 X.8988 Y-.8617
N3630 X.9107 Y-.8489
N3640 X.9225 Y-.836
N3650 X.934 Y-.823
N3660 X.9454 Y-.8098
N3670 X.9565 Y-.7964
N3680 X.9675 Y-.7829
N3690 X.9783 Y-.7693
N3700 X.989 Y-.7555
N3710 X.9994 Y-.7415
N3720 X1.0096 Y-.7275
N3730 X1.0197 Y-.7133
N3740 X1.0295 Y-.6989
N3750 X1.0391 Y-.6844
N3760 X1.0486 Y-.6698
N3770 X1.0578 Y-.6551
N3780 X1.0669 Y-.6403
N3790 X1.0757 Y-.6253
N3800 X1.0843 Y-.6102
N3810 X1.0927 Y-.5949
N3820 X1.1009 Y-.5796
N3830 X1.1089 Y-.5642
N3840 X1.1166 Y-.5486
N3850 X1.1242 Y-.533
N3860 X1.1315 Y-.5172
N3870 X1.1386 Y-.5014
N3880 X1.1455 Y-.4854
N3890 X1.1521 Y-.4693
N3900 X1.1586 Y-.4532
N3910 X1.1648 Y-.437
N3920 X1.1708 Y-.4207
N3930 X1.1765 Y-.4043
N3940 X1.1821 Y-.3878
N3950 X1.1874 Y-.3712
N3960 X1.1924 Y-.3546
N3970 X1.1973 Y-.3379
N3980 X1.2019 Y-.3212
N3990 X1.2062 Y-.3044
N4000 X1.2104 Y-.2875
N4010 X1.2143 Y-.2706
N4020 X1.2179 Y-.2536
N4030 X1.2213 Y-.2365
N4040 X1.2245 Y-.2195
N4050 X1.2275 Y-.2023
N4060 X1.2302 Y-.1852
N4070 X1.2326 Y-.168
N4080 X1.2349 Y-.1508
N4090 X1.2368 Y-.1335
N4100 X1.2386 Y-.1162
N4110 X1.2401 Y-.0989
N4120 X1.2413 Y-.0816
N4130 X1.2424 Y-.0642
N4140 X1.2431 Y-.0469
N4150 X1.2437 Y-.0295
N4160 X1.244 Y-.0121
N4170 Y.0052
N4180 X1.2438 Y.0226
N4190 X1.2434 Y.04
N4200 X1.2427 Y.0573
N4210 X1.2418 Y.0747
N4220 X1.2406 Y.092
N4230 X1.2392 Y.1093
N4240 X1.2376 Y.1266
N4250 X1.2357 Y.1439
N4260 X1.2335 Y.1611
N4270 X1.2312 Y.1783
N4280 X1.2286 Y.1955
N4290 X1.2257 Y.2127
N4300 X1.2226 Y.2297
N4310 X1.2193 Y.2468
N4320 X1.2157 Y.2638
N4330 X1.2119 Y.2808
N4340 X1.2079 Y.2976
N4350 X1.2036 Y.3145
N4360 X1.1991 Y.3313
N4370 X1.1944 Y.348
N4380 X1.1894 Y.3646
N4390 X1.1842 Y.3812
N4400 X1.1787 Y.3977
N4410 X1.1731 Y.4141
N4420 X1.1672 Y.4305
N4430 X1.161 Y.4467
N4440 X1.1547 Y.4629
N4450 X1.1481 Y.479
N4460 X1.1413 Y.495
N4470 X1.1343 Y.5108
N4480 X1.127 Y.5266
N4490 X1.1196 Y.5423
N4500 X1.1119 Y.5579
N4510 X1.104 Y.5734
N4520 X1.0959 Y.5887
N4530 X1.0876 Y.604
N4540 X1.079 Y.6191
N4550 X1.0703 Y.6341
N4560 X1.0613 Y.649
N4570 X1.0521 Y.6638
N4580 X1.0428 Y.6784
N4590 X1.0332 Y.6929
N4600 X1.0234 Y.7072
N4610 X1.0134 Y.7215
N4620 X1.0033 Y.7355
N4630 X.9929 Y.7495
N4640 X.9823 Y.7633
N4650 X.9716 Y.7769
N4660 X.9606 Y.7904
N4670 X.9495 Y.8037
N4680 X.9382 Y.8169
N4690 X.9267 Y.83
N4700 X.915 Y.8428
N4710 X.9031 Y.8555
N4720 X.8911 Y.868
N4730 X.8789 Y.8804
N4740 X.8665 Y.8926
N4750 X.854 Y.9046
N4760 X.8413 Y.9164
N4770 X.8284 Y.9281
N4780 X.8153 Y.9396
N4790 X.8021 Y.9509
N4800 X.7888 Y.962
N4810 X.7753 Y.9729
N4820 X.7616 Y.9836
N4830 X.7478 Y.9942
N4840 X.7338 Y1.0045
N4850 X.7197 Y1.0147
N4860 X.7055 Y1.0246
N4870 X.6911 Y1.0344
N4880 X.6766 Y1.0439
N4890 X.662 Y1.0533
N4900 X.6472 Y1.0624
N4910 X.6323 Y1.0713
N4920 X.6173 Y1.0801
N4930 X.6021 Y1.0886
N4940 X.5869 Y1.0969
N4950 X.5715 Y1.105
N4960 X.556 Y1.1128
N4970 X.5404 Y1.1205
N4980 X.5247 Y1.1279
N4990 X.5089 Y1.1352
N5000 X.493 Y1.1421
N5010 X.477 Y1.1489
N5020 X.4609 Y1.1555
N5030 X.4447 Y1.1618
N5040 X.4285 Y1.1679
N5050 X.4121 Y1.1738
N5060 X.3957 Y1.1794
N5070 X.3792 Y1.1848
N5080 X.3626 Y1.19
N5090 X.346 Y1.1949
N5100 X.3292 Y1.1997
N5110 X.3124 Y1.2041
N5120 X.2956 Y1.2084
N5130 X.2787 Y1.2124
N5140 X.2617 Y1.2162
N5150 X.2447 Y1.2197
N5160 X.2277 Y1.223
N5170 X.2106 Y1.2261
N5180 X.1934 Y1.2289
N5190 X.1763 Y1.2315
N5200 X.159 Y1.2338
N5210 X.1418 Y1.2359
N5220 X.1245 Y1.2378
N5230 X.1072 Y1.2394
N5240 X.0899 Y1.2408
N5250 X.0726 Y1.2419
N5260 X.0552 Y1.2428
N5270 X.0379 Y1.2434
N5280 X.0205 Y1.2438
N5290 X.0031 Y1.244
N5300 X-.0143 Y1.2439
N5310 X-.0316 Y1.2436
N5320 X-.049 Y1.243
N5330 X-.0663 Y1.2422
N5340 X-.0837 Y1.2412
N5350 X-.101 Y1.2399
N5360 X-.1183 Y1.2384
N5370 X-.1356 Y1.2366
N5380 X-.1528 Y1.2346
N5390 X-.1701 Y1.2323
N5400 X-.1873 Y1.2298
N5410 X-.2044 Y1.2271
N5420 X-.2215 Y1.2241
N5430 X-.2386 Y1.2209
N5440 X-.2556 Y1.2175
N5450 X-.2726 Y1.2138
N5460 X-.2895 Y1.2099
N5470 X-.3064 Y1.2057
N5480 X-.3232 Y1.2013
N5490 X-.34 Y1.1967
N5500 X-.3566 Y1.1918
N5510 X-.3732 Y1.1867
N5520 X-.3898 Y1.1814
N5530 X-.4062 Y1.1758
N5540 X-.4226 Y1.17
N5550 X-.4389 Y1.164
N5560 X-.4551 Y1.1578
N5570 X-.4713 Y1.1513
N5580 X-.4873 Y1.1446
N5590 X-.5032 Y1.1377
N5600 X-.5191 Y1.1306
N5610 X-.5348 Y1.1232
N5620 X-.5504 Y1.1156
N5630 X-.566 Y1.1078
N5640 X-.5814 Y1.0998
N5650 X-.5967 Y1.0916
N5660 X-.6119 Y1.0831
N5670 X-.6269 Y1.0745
N5680 X-.6419 Y1.0656
N5690 X-.6567 Y1.0566
N5700 X-.6714 Y1.0473
N5710 X-.6859 Y1.0378
N5720 X-.7004 Y1.0281
N5730 X-.7146 Y1.0183
N5740 X-.7288 Y1.0082
N5750 X-.7428 Y.9979
N5760 X-.7567 Y.9874
N5770 X-.7704 Y.9768
N5780 X-.7839 Y.9659
N5790 X-.7974 Y.9549
N5800 X-.8106 Y.9436
N5810 X-.8237 Y.9322
N5820 X-.8367 Y.9206
N5830 X-.8494 Y.9089
N5840 X-.862 Y.8969
N5850 X-.8745 Y.8848
N5860 X-.8868 Y.8725
N5870 X-.8988 Y.86
N5880 X-.9108 Y.8474
N5890 X-.9225 Y.8346
N5900 X-.9341 Y.8216
N5910 X-.9455 Y.8085
N5920 X-.9567 Y.7952
N5930 X-.9677 Y.7818
N5940 X-.9785 Y.7682
N5950 X-.9891 Y.7544
N5960 X-.9996 Y.7406
N5970 X-1.0098 Y.7265
N5980 X-1.0199 Y.7124
N5990 X-1.0297 Y.698
N6000 X-1.0394 Y.6836
N6010 X-1.0488 Y.669
N6020 X-1.058 Y.6543
N6030 X-1.0671 Y.6395
N6040 X-1.0759 Y.6245
N6050 X-1.0845 Y.6094
N6060 X-1.0929 Y.5942
N6070 X-1.1011 Y.5789
N6080 X-1.1091 Y.5635
N6090 X-1.1168 Y.5479
N6100 X-1.1244 Y.5323
N6110 X-1.1317 Y.5165
N6120 X-1.1388 Y.5007
N6130 X-1.1457 Y.4847
N6140 X-1.1524 Y.4687
N6150 X-1.1588 Y.4525
N6160 X-1.165 Y.4363
N6170 X-1.171 Y.42
N6180 X-1.1767 Y.4036
N6190 X-1.1822 Y.3871
N6200 X-1.1875 Y.3706
N6210 X-1.1926 Y.354
N6220 X-1.1974 Y.3373
N6230 X-1.202 Y.3205
N6240 X-1.2064 Y.3037
N6250 X-1.2105 Y.2868
N6260 X-1.2144 Y.2699
N6270 X-1.218 Y.2529
N6280 X-1.2214 Y.2359
N6290 X-1.2246 Y.2188
N6300 X-1.2276 Y.2017
N6310 X-1.2303 Y.1845
N6320 X-1.2327 Y.1673
N6330 X-1.2349 Y.1501
N6340 X-1.2369 Y.1328
N6350 X-1.2386 Y.1155
N6360 X-1.2401 Y.0982
N6370 X-1.2414 Y.0809
N6380 X-1.2424 Y.0636
N6390 X-1.2432 Y.0462
N6400 X-1.2437 Y.0288
N6410 X-1.244 Y.0115
N6420 Y-.0059
N6430 X-1.2438 Y-.0233
N6440 X-1.2433 Y-.0406
N6450 X-1.2427 Y-.058
N6460 X-1.2417 Y-.0754
N6470 X-1.2406 Y-.0927
N6480 X-1.2391 Y-.11
N6490 X-1.2375 Y-.1273
N6500 X-1.2356 Y-.1446
N6510 X-1.2334 Y-.1618
N6520 X-1.2311 Y-.179
N6530 X-1.2284 Y-.1962
N6540 X-1.2256 Y-.2133
N6550 X-1.2225 Y-.2304
N6560 X-1.2192 Y-.2475
N6570 X-1.2156 Y-.2645
N6580 X-1.2118 Y-.2814
N6590 X-1.2077 Y-.2983
N6600 X-1.2034 Y-.3151
N6610 X-1.1989 Y-.3319
N6620 X-1.1942 Y-.3486
N6630 X-1.1892 Y-.3653
N6640 X-1.184 Y-.3818
N6650 X-1.1785 Y-.3983
N6660 X-1.1728 Y-.4148
N6670 X-1.1669 Y-.4311
N6680 X-1.1608 Y-.4473
N6690 X-1.1544 Y-.4635
N6700 X-1.1479 Y-.4796
N6710 X-1.141 Y-.4956
N6720 X-1.134 Y-.5115
N6730 X-1.1268 Y-.5272
N6740 X-1.1193 Y-.5429
N6750 X-1.1116 Y-.5585
N6760 X-1.1037 Y-.574
N6770 X-1.0956 Y-.5893
N6780 X-1.0873 Y-.6045
N6790 X-1.0788 Y-.6194
N6800 X-1.0701 Y-.6342
N6810 X-1.0612 Y-.6487
N6820 X-1.0521 Y-.663
N6830 X-1.0429 Y-.677
N6840 X-1.0333 Y-.6908
N6850 X-1.0236 Y-.7043
N6860 X-1.0136 Y-.7177
N6870 X-1.0034 Y-.7307
N6880 X-.9929 Y-.7436
N6890 X-.9821 Y-.7562
N6900 X-.9711 Y-.7685
N6910 X-.9598 Y-.7807
N6920 X-.9483 Y-.7926
N6930 X-.9365 Y-.8043
N6940 X-.9244 Y-.8157
N6950 X-.9121 Y-.827
N6960 X-.8996 Y-.8379
N6970 X-.8868 Y-.8487
N6980 X-.8738 Y-.8592
N6990 X-.8605 Y-.8695
N7000 X-.8471 Y-.8795
N7010 X-.8334 Y-.8893
N7020 X-.8195 Y-.8988
N7030 X-.8055 Y-.9081
N7040 X-.7912 Y-.9172
N7050 X-.7768 Y-.926
N7060 X-.7621 Y-.9345
N7070 X-.7474 Y-.9428
N7080 X-.7324 Y-.9509
N7090 X-.7173 Y-.9587
N7100 X-.7021 Y-.9662
N7110 X-.6867 Y-.9735
N7120 X-.6712 Y-.9805
N7130 X-.6555 Y-.9873
N7140 X-.6397 Y-.9938
N7150 X-.6238 Y-1.
N7160 X-.6078 Y-1.006
N7170 X-.5917 Y-1.0117
N7180 X-.5755 Y-1.0172
N7190 X-.5592 Y-1.0224
N7200 X-.5428 Y-1.0273
N7210 X-.5264 Y-1.032
N7220 X-.5098 Y-1.0364
N7230 X-.4932 Y-1.0405
N7240 X-.4765 Y-1.0443
N7250 X-.4597 Y-1.0479
N7260 X-.4429 Y-1.0512
N7270 X-.4261 Y-1.0543
N7280 X-.4091 Y-1.0571
N7290 X-.3922 Y-1.0596
N7300 X-.3752 Y-1.0618
N7310 X-.3581 Y-1.0638
N7320 X-.3411 Y-1.0654
N7330 X-.324 Y-1.0668
N7340 X-.3069 Y-1.068
N7350 X-.2898 Y-1.0688
N7360 X-.2727 Y-1.0694
N7370 X-.2555 Y-1.0697
N7380 X-.2384 Y-1.0698
N7390 X-.2212 Y-1.0695
N7400 X-.2041 Y-1.069
N7410 X-.187 Y-1.0682
N7420 X-.1699 Y-1.0672
N7430 X-.1528 Y-1.0658
N7440 X-.1358 Y-1.0642
N7450 X-.1188 Y-1.0623
N7460 X-.1018 Y-1.0601
N7470 X-.0848 Y-1.0577
N7480 X-.0679 Y-1.0549
N7490 X-.051 Y-1.0519
N7500 X-.0341 Y-1.0487
N7510 X-.0173 Y-1.0451
N7520 X-.0004 Y-1.0413
N7530 X.0164 Y-1.0373
N7540 X.0332 Y-1.0329
N7550 X.0501 Y-1.0284
N7560 X.0669 Y-1.0236
N7570 X.0836 Y-1.0186
N7580 X.1004 Y-1.0133
N7590 X.1171 Y-1.0079
N7600 X.1338 Y-1.0022
N7610 X.1505 Y-.9964
N7620 X.1671 Y-.9903
N7630 X.1837 Y-.9841
N7640 X.2002 Y-.9776
N7650 X.2166 Y-.971
N7660 X.233 Y-.9643
N7670 X.2493 Y-.9573
N7680 X.2656 Y-.9502
N7690 X.2817 Y-.9429
N7700 X.2978 Y-.9354
N7710 X.3138 Y-.9278
N7720 X.3297 Y-.92
N7730 X.3454 Y-.912
N7740 X.3611 Y-.9039
N7750 X.3766 Y-.8956
N7760 X.3921 Y-.8871
N7770 X.4074 Y-.8785
N7780 X.4225 Y-.8697
N7790 X.4376 Y-.8607
N7800 X.4525 Y-.8515
N7810 X.4672 Y-.8422
N7820 X.4818 Y-.8327
N7830 X.4963 Y-.823
N7840 X.5106 Y-.8131
N7850 X.5247 Y-.803
N7860 X.5387 Y-.7927
N7870 X.5525 Y-.7823
N7880 X.5661 Y-.7717
N7890 X.5795 Y-.7609
N7900 X.5928 Y-.7499
N7910 X.6059 Y-.7387
N7920 X.6188 Y-.7273
N7930 X.6315 Y-.7157
N7940 X.644 Y-.704
N7950 X.6563 Y-.692
N7960 X.6684 Y-.6799
N7970 X.6802 Y-.6676
N7980 X.6919 Y-.6551
N7990 X.7034 Y-.6424
N8000 X.7146 Y-.6295
N8010 X.7256 Y-.6165
N8020 X.7364 Y-.6033
N8030 X.7469 Y-.5899
N8040 X.7572 Y-.5763
N8050 X.7673 Y-.5626
N8060 X.7772 Y-.5487
N8070 X.7868 Y-.5347
N8080 X.7961 Y-.5205
N8090 X.8052 Y-.5061
N8100 X.814 Y-.4916
N8110 X.8226 Y-.4769
N8120 X.831 Y-.4622
N8130 X.839 Y-.4472
N8140 X.8468 Y-.4321
N8150 X.8544 Y-.4169
N8160 X.8616 Y-.4016
N8170 X.8686 Y-.3861
N8180 X.8753 Y-.3705
N8190 X.8818 Y-.3548
N8200 X.8879 Y-.339
N8210 X.8938 Y-.3231
N8220 X.8994 Y-.3071
N8230 X.9047 Y-.291
N8240 X.9098 Y-.2748
N8250 X.9145 Y-.2585
N8260 X.919 Y-.2422
N8270 X.9231 Y-.2258
N8280 X.927 Y-.2093
N8290 X.9306 Y-.1927
N8300 X.9338 Y-.1761
N8310 X.9368 Y-.1594
N8320 X.9395 Y-.1426
N8330 X.9419 Y-.1259
N8340 X.944 Y-.1091
N8350 X.9458 Y-.0922
N8360 X.9473 Y-.0753
N8370 X.9485 Y-.0584
N8380 X.9493 Y-.0415
N8390 X.9499 Y-.0246
N8400 X.9502 Y-.0076
N8410 Y.0093
N8420 X.9499 Y.0263
N8430 X.9492 Y.0432
N8440 X.9483 Y.0601
N8450 X.9471 Y.077
N8460 X.9456 Y.0939
N8470 X.9437 Y.1107
N8480 X.9416 Y.1275
N8490 X.9392 Y.1443
N8500 X.9365 Y.1611
N8510 X.9335 Y.1777
N8520 X.9301 Y.1943
N8530 X.9265 Y.2109
N8540 X.9226 Y.2274
N8550 X.9184 Y.2438
N8560 X.9139 Y.2601
N8570 X.9091 Y.2764
N8580 X.9041 Y.2925
N8590 X.8987 Y.3086
N8600 X.8931 Y.3246
N8610 X.8871 Y.3405
N8620 X.8809 Y.3562
N8630 X.8744 Y.3719
N8640 X.8677 Y.3874
N8650 X.8606 Y.4028
N8660 X.8533 Y.4181
N8670 X.8457 Y.4332
N8680 X.8378 Y.4483
N8690 X.8297 Y.4631
N8700 X.8213 Y.4778
N8710 X.8127 Y.4924
N8720 X.8038 Y.5068
N8730 X.7946 Y.5211
N8740 X.7852 Y.5351
N8750 X.7755 Y.5491
N8760 X.7656 Y.5628
N8770 X.7555 Y.5764
N8780 X.7451 Y.5897
N8790 X.7344 Y.6029
N8800 X.7236 Y.6159
N8810 X.7125 Y.6287
N8820 X.7011 Y.6413
N8830 X.6896 Y.6537
N8840 X.6778 Y.6659
N8850 X.6658 Y.6779
N8860 X.6536 Y.6897
N8870 X.6412 Y.7012
N8880 X.6286 Y.7125
N8890 X.6158 Y.7236
N8900 X.6028 Y.7345
N8910 X.5897 Y.7451
N8920 X.5763 Y.7555
N8930 X.5627 Y.7657
N8940 X.549 Y.7756
N8950 X.5351 Y.7852
N8960 X.521 Y.7947
N8970 X.5067 Y.8038
N8980 X.4923 Y.8127
N8990 X.4777 Y.8214
N9000 X.463 Y.8298
N9010 X.4481 Y.8379
N9020 X.4331 Y.8458
N9030 X.418 Y.8533
N9040 X.4027 Y.8607
N9050 X.3873 Y.8677
N9060 X.3718 Y.8745
N9070 X.3561 Y.881
N9080 X.3403 Y.8872
N9090 X.3245 Y.8931
N9100 X.3085 Y.8987
N9110 X.2924 Y.9041
N9120 X.2763 Y.9092
N9130 X.26 Y.9139
N9140 X.2437 Y.9184
N9150 X.2273 Y.9226
N9160 X.2108 Y.9265
N9170 X.1942 Y.9301
N9180 X.1776 Y.9335
N9190 X.1609 Y.9365
N9200 X.1442 Y.9392
N9210 X.1274 Y.9416
N9220 X.1106 Y.9437
N9230 X.0938 Y.9456
N9240 X.0769 Y.9471
N9250 X.06 Y.9483
N9260 X.0431 Y.9492
N9270 X.0262 Y.9499
N9280 X.0092 Y.9502
N9290 X-.0077
N9300 X-.0247 Y.9499
N9310 X-.0416 Y.9493
N9320 X-.0585 Y.9484
N9330 X-.0754 Y.9472
N9340 X-.0923 Y.9457
N9350 X-.1091 Y.9439
N9360 X-.1259 Y.9418
N9370 X-.1427 Y.9394
N9380 X-.1594 Y.9367
N9390 X-.1761 Y.9337
N9400 X-.1927 Y.9305
N9410 X-.2093 Y.9269
N9420 X-.2258 Y.923
N9430 X-.2422 Y.9188
N9440 X-.2586 Y.9144
N9450 X-.2748 Y.9096
N9460 X-.291 Y.9046
N9470 X-.3071 Y.8992
N9480 X-.3231 Y.8936
N9490 X-.3389 Y.8877
N9500 X-.3547 Y.8815
N9510 X-.3704 Y.8751
N9520 X-.3859 Y.8683
N9530 X-.4013 Y.8613
N9540 X-.4166 Y.854
N9550 X-.4318 Y.8464
N9560 X-.4468 Y.8386
N9570 X-.4617 Y.8305
N9580 X-.4764 Y.8221
N9590 X-.491 Y.8135
N9600 X-.5054 Y.8046
N9610 X-.5197 Y.7955
N9620 X-.5338 Y.7861
N9630 X-.5477 Y.7765
N9640 X-.5615 Y.7666
N9650 X-.5751 Y.7564
N9660 X-.5885 Y.7461
N9670 X-.6017 Y.7355
N9680 X-.6147 Y.7246
N9690 X-.6275 Y.7135
N9700 X-.6401 Y.7022
N9710 X-.6525 Y.6907
N9720 X-.6648 Y.679
N9730 X-.6768 Y.667
N9740 X-.6885 Y.6548
N9750 X-.7001 Y.6425
N9760 X-.7115 Y.6299
N9770 X-.7226 Y.6171
N9780 X-.7335 Y.6041
N9790 X-.7441 Y.5909
N9800 X-.7545 Y.5776
N9810 X-.7647 Y.564
N9820 X-.7746 Y.5503
N9830 X-.7843 Y.5364
N9840 X-.7938 Y.5223
N9850 X-.803 Y.5081
N9860 X-.8119 Y.4937
N9870 X-.8206 Y.4791
N9880 X-.829 Y.4644
N9890 X-.8371 Y.4496
N9900 X-.845 Y.4346
N9910 X-.8526 Y.4194
N9920 X-.86 Y.4042
N9930 X-.867 Y.3888
N9940 X-.8738 Y.3733
N9950 X-.8803 Y.3576
N9960 X-.8866 Y.3419
N9970 X-.8925 Y.326
N9980 X-.8982 Y.31
N9990 X-.9036 Y.294
N100 X-.9087 Y.2778
N110 X-.9135 Y.2616
N120 X-.918 Y.2452
N130 X-.9222 Y.2288
N140 X-.9262 Y.2124
N150 X-.9298 Y.1958
N160 X-.9332 Y.1792
N170 X-.9362 Y.1625
N180 X-.939 Y.1458
N190 X-.9414 Y.129
N200 X-.9436 Y.1123
N210 X-.9454 Y.0954
N220 X-.947 Y.0785
N230 X-.9482 Y.0616
N240 X-.9492 Y.0447
N250 X-.9498 Y.0278
N260 X-.9501 Y.0109
N270 X-.9502 Y-.0061
N280 X-.9499 Y-.023
N290 X-.9494 Y-.04
N300 X-.9485 Y-.0569
N310 X-.9473 Y-.0738
N320 X-.9459 Y-.0907
N330 X-.9441 Y-.1075
N340 X-.942 Y-.1243
N350 X-.9397 Y-.1411
N360 X-.937 Y-.1578
N370 X-.934 Y-.1745
N380 X-.9308 Y-.1911
N390 X-.9272 Y-.2077
N400 X-.9234 Y-.2242
N410 X-.9192 Y-.2406
N420 X-.9148 Y-.257
N430 X-.9101 Y-.2732
N440 X-.9051 Y-.2894
N450 X-.8998 Y-.3055
N460 X-.8942 Y-.3215
N470 X-.8883 Y-.3374
N480 X-.8821 Y-.3531
N490 X-.8757 Y-.3687
N500 X-.8691 Y-.3841
N510 X-.8621 Y-.3992
N520 X-.8549 Y-.4141
N530 X-.8474 Y-.4287
N540 X-.8397 Y-.4431
N550 X-.8317 Y-.4571
N560 X-.8233 Y-.4709
N570 X-.8147 Y-.4844
N580 X-.8058 Y-.4977
N590 X-.7965 Y-.5106
N600 X-.787 Y-.5232
N610 X-.7771 Y-.5356
N620 X-.7669 Y-.5477
N630 X-.7563 Y-.5596
N640 X-.7455 Y-.5711
N650 X-.7343 Y-.5823
N660 X-.7228 Y-.5933
N670 X-.711 Y-.604
N680 X-.6989 Y-.6144
N690 X-.6865 Y-.6245
N700 X-.6739 Y-.6342
N710 X-.6609 Y-.6437
N720 X-.6477 Y-.6529
N730 X-.6343 Y-.6617
N740 X-.6206 Y-.6703
N750 X-.6067 Y-.6785
N760 X-.5925 Y-.6864
N770 X-.5781 Y-.6939
N780 X-.5636 Y-.7011
N790 X-.5488 Y-.708
N800 X-.5339 Y-.7146
N810 X-.5188 Y-.7208
N820 X-.5035 Y-.7267
N830 X-.4881 Y-.7322
N840 X-.4726 Y-.7374
N850 X-.4569 Y-.7423
N860 X-.4411 Y-.7468
N870 X-.4252 Y-.7509
N880 X-.4092 Y-.7547
N890 X-.3932 Y-.7581
N900 X-.377 Y-.7612
N910 X-.3608 Y-.764
N920 X-.3445 Y-.7663
N930 X-.3281 Y-.7684
N940 X-.3117 Y-.77
N950 X-.2953 Y-.7713
N960 X-.2789 Y-.7723
N970 X-.2624 Y-.7729
N980 X-.2459 Y-.7731
N990 X-.2294 Y-.773
N1000 X-.2129 Y-.7725
N1010 X-.1964 Y-.7716
N1020 X-.1799 Y-.7704
N1030 X-.1633 Y-.7689
N1040 X-.1467 Y-.767
N1050 X-.1301 Y-.7648
N1060 X-.1135 Y-.7623
N1070 X-.0969 Y-.7594
N1080 X-.0803 Y-.7562
N1090 X-.0637 Y-.7527
N1100 X-.047 Y-.7489
N1110 X-.0304 Y-.7449
N1120 X-.0139 Y-.7405
N1130 X.0027 Y-.7359
N1140 X.0192 Y-.731
N1150 X.0356 Y-.7258
N1160 X.052 Y-.7204
N1170 X.0684 Y-.7147
N1180 X.0846 Y-.7088
N1190 X.1008 Y-.7027
N1200 X.1169 Y-.6963
N1210 X.1329 Y-.6897
N1220 X.1488 Y-.6829
N1230 X.1646 Y-.6758
N1240 X.1803 Y-.6685
N1250 X.1958 Y-.661
N1260 X.2112 Y-.6533
N1270 X.2264 Y-.6453
N1280 X.2415 Y-.6371
N1290 X.2564 Y-.6287
N1300 X.2712 Y-.6201
N1310 X.2858 Y-.6112
N1320 X.3002 Y-.6022
N1330 X.3144 Y-.5928
N1340 X.3284 Y-.5833
N1350 X.3421 Y-.5736
N1360 X.3557 Y-.5636
N1370 X.369 Y-.5533
N1380 X.3821 Y-.5429
N1390 X.395 Y-.5322
N1400 X.4076 Y-.5213
N1410 X.42 Y-.5102
N1420 X.4321 Y-.4988
N1430 X.444 Y-.4872
N1440 X.4556 Y-.4754
N1450 X.4669 Y-.4634
N1460 X.4779 Y-.4511
N1470 X.4887 Y-.4387
N1480 X.4991 Y-.426
N1490 X.5092 Y-.4131
N1500 X.5191 Y-.4
N1510 X.5286 Y-.3867
N1520 X.5378 Y-.3732
N1530 X.5467 Y-.3595
N1540 X.5552 Y-.3456
N1550 X.5635 Y-.3316
N1560 X.5713 Y-.3173
N1570 X.5789 Y-.3029
N1580 X.5861 Y-.2883
N1590 X.5929 Y-.2736
N1600 X.5994 Y-.2587
N1610 X.6055 Y-.2437
N1620 X.6112 Y-.2286
N1630 X.6166 Y-.2133
N1640 X.6216 Y-.1979
N1650 X.6263 Y-.1824
N1660 X.6305 Y-.1668
N1670 X.6344 Y-.1511
N1680 X.6379 Y-.1353
N1690 X.641 Y-.1194
N1700 X.6437 Y-.1035
N1710 X.646 Y-.0875
N1720 X.6479 Y-.0715
N1730 X.6495 Y-.0554
N1740 X.6506 Y-.0393
N1750 X.6513 Y-.0232
N1760 X.6517 Y-.007
N1770 X.6516 Y.0091
N1780 X.6512 Y.0252
N1790 X.6503 Y.0414
N1800 X.6491 Y.0574
N1810 X.6475 Y.0735
N1820 X.6454 Y.0895
N1830 X.643 Y.1054
N1840 X.6402 Y.1213
N1850 X.637 Y.1371
N1860 X.6334 Y.1528
N1870 X.6294 Y.1685
N1880 X.625 Y.184
N1890 X.6203 Y.1994
N1900 X.6151 Y.2147
N1910 X.6096 Y.2298
N1920 X.6038 Y.2448
N1930 X.5975 Y.2597
N1940 X.5909 Y.2744
N1950 X.5839 Y.2889
N1960 X.5766 Y.3033
N1970 X.5689 Y.3175
N1980 X.5609 Y.3314
N1990 X.5525 Y.3452
N2000 X.5438 Y.3588
N2010 X.5348 Y.3721
N2020 X.5254 Y.3853
N2030 X.5157 Y.3981
N2040 X.5057 Y.4108
N2050 X.4954 Y.4232
N2060 X.4847 Y.4353
N2070 X.4738 Y.4471
N2080 X.4626 Y.4587
N2090 X.4511 Y.47
N2100 X.4393 Y.4811
N2110 X.4273 Y.4918
N2120 X.415 Y.5022
N2130 X.4025 Y.5123
N2140 X.3897 Y.5221
N2150 X.3766 Y.5316
N2160 X.3634 Y.5407
N2170 X.3499 Y.5496
N2180 X.3362 Y.5581
N2190 X.3223 Y.5662
N2200 X.3081 Y.574
N2210 X.2939 Y.5814
N2220 X.2794 Y.5885
N2230 X.2647 Y.5953
N2240 X.2499 Y.6016
N2250 X.2349 Y.6076
N2260 X.2199 Y.6133
N2270 X.2046 Y.6185
N2280 X.1892 Y.6234
N2290 X.1738 Y.6279
N2300 X.1582 Y.632
N2310 X.1425 Y.6357
N2320 X.1267 Y.639
N2330 X.1109 Y.642
N2340 X.095 Y.6445
N2350 X.079 Y.6467
N2360 X.0629 Y.6484
N2370 X.0469 Y.6498
N2380 X.0308 Y.6507
N2390 X.0147 Y.6513
N2400 X-.0014 Y.6515
N2410 X-.0176 Y.6512
N2420 X-.0336 Y.6506
N2430 X-.0497 Y.6496
N2440 X-.0658 Y.6481
N2450 X-.0818 Y.6463
N2460 X-.0978 Y.6441
N2470 X-.1137 Y.6415
N2480 X-.1295 Y.6385
N2490 X-.1453 Y.6351
N2500 X-.1609 Y.6313
N2510 X-.1765 Y.6271
N2520 X-.192 Y.6226
N2530 X-.2073 Y.6176
N2540 X-.2225 Y.6123
N2550 X-.2376 Y.6066
N2560 X-.2526 Y.6005
N2570 X-.2673 Y.5941
N2580 X-.2819 Y.5873
N2590 X-.2964 Y.5801
N2600 X-.3107 Y.5726
N2610 X-.3247 Y.5648
N2620 X-.3386 Y.5566
N2630 X-.3523 Y.548
N2640 X-.3657 Y.5391
N2650 X-.3789 Y.5299
N2660 X-.3919 Y.5204
N2670 X-.4047 Y.5105
N2680 X-.4172 Y.5004
N2690 X-.4295 Y.4899
N2700 X-.4414 Y.4791
N2710 X-.4532 Y.468
N2720 X-.4646 Y.4567
N2730 X-.4758 Y.4451
N2740 X-.4866 Y.4331
N2750 X-.4972 Y.421
N2760 X-.5075 Y.4085
N2770 X-.5174 Y.3959
N2780 X-.527 Y.3829
N2790 X-.5364 Y.3698
N2800 X-.5453 Y.3564
N2810 X-.554 Y.3428
N2820 X-.5623 Y.329
N2830 X-.5703 Y.315
N2840 X-.5779 Y.3008
N2850 X-.5852 Y.2864
N2860 X-.5921 Y.2718
N2870 X-.5986 Y.2571
N2880 X-.6048 Y.2422
N2890 X-.6106 Y.2272
N2900 X-.616 Y.212
N2910 X-.6211 Y.1967
N2920 X-.6258 Y.1812
N2930 X-.63 Y.1657
N2940 X-.634 Y.1501
N2950 X-.6375 Y.1343
N2960 X-.6406 Y.1185
N2970 X-.6433 Y.1026
N2980 X-.6457 Y.0867
N2990 X-.6476 Y.0707
N3000 X-.6492 Y.0546
N3010 X-.6503 Y.0386
N3020 X-.6511 Y.0225
N3030 X-.6514 Y.0063
N3040 Y-.0098
N3050 X-.651 Y-.0259
N3060 X-.6501 Y-.042
N3070 X-.6489 Y-.058
N3080 X-.6472 Y-.0741
N3090 X-.6452 Y-.0901
N3100 X-.6428 Y-.106
N3110 X-.64 Y-.1219
N3120 X-.6368 Y-.1376
N3130 X-.6332 Y-.1532
N3140 X-.6292 Y-.1686
N3150 X-.6249 Y-.1837
N3160 X-.6201 Y-.1985
N3170 X-.615 Y-.213
N3180 X-.6096 Y-.2271
N3190 X-.6037 Y-.2408
N3200 X-.5975 Y-.2541
N3210 X-.5909 Y-.2671
N3220 X-.5838 Y-.2796
N3230 X-.5764 Y-.2918
N3240 X-.5685 Y-.3036
N3250 X-.5602 Y-.3151
N3260 X-.5515 Y-.3262
N3270 X-.5423 Y-.337
N3280 X-.5327 Y-.3473
N3290 X-.5227 Y-.3574
N3300 X-.5123 Y-.367
N3310 X-.5015 Y-.3763
N3320 X-.4903 Y-.3851
N3330 X-.4788 Y-.3936
N3340 X-.4668 Y-.4016
N3350 X-.4546 Y-.4092
N3360 X-.442 Y-.4164
N3370 X-.4291 Y-.4232
N3380 X-.4159 Y-.4294
N3390 X-.4025 Y-.4353
N3400 X-.3889 Y-.4406
N3410 X-.375 Y-.4455
N3420 X-.3609 Y-.4499
N3430 X-.3467 Y-.4538
N3440 X-.3323 Y-.4572
N3450 X-.3177 Y-.4601
N3460 X-.3029 Y-.4626
N3470 X-.2881 Y-.4645
N3480 X-.273 Y-.466
N3490 X-.2578 Y-.467
N3500 X-.2424 Y-.4675
N3510 X-.2269 Y-.4676
N3520 X-.2113 Y-.4672
N3530 X-.1957 Y-.4664
N3540 X-.1799 Y-.4651
N3550 X-.164 Y-.4634
N3560 X-.1481 Y-.4613
N3570 X-.1322 Y-.4588
N3580 X-.1163 Y-.4558
N3590 X-.1003 Y-.4525
N3600 X-.0844 Y-.4488
N3610 X-.0686 Y-.4447
N3620 X-.0528 Y-.4403
N3630 X-.0371 Y-.4355
N3640 X-.0214 Y-.4303
N3650 X-.0059 Y-.4248
N3660 X.0094 Y-.419
N3670 X.0247 Y-.4128
N3680 X.0397 Y-.4063
N3690 X.0546 Y-.3995
N3700 X.0692 Y-.3924
N3710 X.0837 Y-.3849
N3720 X.0979 Y-.3771
N3730 X.1118 Y-.3691
N3740 X.1255 Y-.3607
N3750 X.1388 Y-.352
N3760 X.1519 Y-.343
N3770 X.1646 Y-.3337
N3780 X.177 Y-.3241
N3790 X.1891 Y-.3143
N3800 X.2007 Y-.3041
N3810 X.212 Y-.2937
N3820 X.2229 Y-.283
N3830 X.2334 Y-.272
N3840 X.2435 Y-.2607
N3850 X.2532 Y-.2492
N3860 X.2624 Y-.2374
N3870 X.2711 Y-.2254
N3880 X.2794 Y-.2131
N3890 X.2873 Y-.2007
N3900 X.2946 Y-.188
N3910 X.3015 Y-.1751
N3920 X.3078 Y-.162
N3930 X.3137 Y-.1488
N3940 X.319 Y-.1353
N3950 X.3238 Y-.1218
N3960 X.3281 Y-.1081
N3970 X.3319 Y-.0942
N3980 X.3351 Y-.0804
N3990 X.3378 Y-.0664
N4000 X.3399 Y-.0523
N4010 X.3414 Y-.0382
N4020 X.3425 Y-.0241
N4030 X.3429 Y-.0099
N4040 X.3428 Y.0042
N4050 X.3421 Y.0183
N4060 X.3409 Y.0323
N4070 X.3392 Y.0462
N4080 X.3368 Y.0601
N4090 X.334 Y.0738
N4100 X.3305 Y.0874
N4110 X.3266 Y.1009
N4120 X.3221 Y.1142
N4130 X.317 Y.1272
N4140 X.3115 Y.1401
N4150 X.3054 Y.1527
N4160 X.2989 Y.165
N4170 X.2918 Y.1771
N4180 X.2843 Y.1888
N4190 X.2763 Y.2003
N4200 X.2678 Y.2114
N4210 X.259 Y.2221
N4220 X.2496 Y.2325
N4230 X.2399 Y.2425
N4240 X.2298 Y.2521
N4250 X.2193 Y.2613
N4260 X.2084 Y.27
N4270 X.1972 Y.2783
N4280 X.1856 Y.2861
N4290 X.1738 Y.2934
N4300 X.1616 Y.3003
N4310 X.1492 Y.3066
N4320 X.1366 Y.3124
N4330 X.1237 Y.3177
N4340 X.1106 Y.3225
N4350 X.0973 Y.3268
N4360 X.0839 Y.3305
N4370 X.0703 Y.3336
N4380 X.0567 Y.3362
N4390 X.0429 Y.3382
N4400 X.029 Y.3397
N4410 X.0151 Y.3406
N4420 X.0012 Y.3409
N4430 X-.0127 Y.3407
N4440 X-.0266 Y.3399
N4450 X-.0405 Y.3385
N4460 X-.0543 Y.3366
N4470 X-.068 Y.3341
N4480 X-.0816 Y.331
N4490 X-.095 Y.3274
N4500 X-.1083 Y.3232
N4510 X-.1214 Y.3185
N4520 X-.1343 Y.3133
N4530 X-.147 Y.3076
N4540 X-.1595 Y.3013
N4550 X-.1716 Y.2945
N4560 X-.1835 Y.2873
N4570 X-.1951 Y.2795
N4580 X-.2063 Y.2714
N4590 X-.2172 Y.2627
N4600 X-.2278 Y.2536
N4610 X-.2379 Y.2441
N4620 X-.2477 Y.2342
N4630 X-.2571 Y.2239
N4640 X-.266 Y.2132
N4650 X-.2745 Y.2021
N4660 X-.2825 Y.1908
N4670 X-.2901 Y.1791
N4680 X-.2971 Y.1671
N4690 X-.3037 Y.1548
N4700 X-.3098 Y.1423
N4710 X-.3153 Y.1295
N4720 X-.3203 Y.1165
N4730 X-.3248 Y.1034
N4740 X-.3288 Y.09
N4750 X-.3322 Y.0765
N4760 X-.335 Y.0629
N4770 X-.3373 Y.0491
N4780 X-.339 Y.0354
N4790 X-.3402 Y.0216
N4800 X-.3407 Y.0081
N4810 Y-.0051
N4820 X-.34 Y-.0176
N4830 X-.3388 Y-.0291
N4840 X-.3371 Y-.0396
N4850 X-.3349 Y-.0491
N4860 X-.3323 Y-.0577
N4870 X-.3294 Y-.0656
N4880 X-.3261 Y-.0728
N4890 X-.3225 Y-.0797
N4900 X-.3187 Y-.0861
N4910 X-.3145 Y-.0922
N4920 X-.31 Y-.0981
N4930 X-.3051 Y-.1038
N4940 X-.2997 Y-.1094
N4950 X-.2937 Y-.115
N4960 X-.2869 Y-.1204
N4970 X-.2794 Y-.1257
N4980 X-.271 Y-.1307
N4990 X-.2618 Y-.1353
N5000 X-.2517 Y-.1393
N5010 X-.2409 Y-.1426
N5020 X-.2294 Y-.1453
N5030 X-.2173 Y-.1472
N5040 X-.2047 Y-.1484
N5050 X-.1918 Y-.1488
N5060 X-.1786 Y-.1485
N5070 X-.1653 Y-.1474
N5080 X-.1519 Y-.1455
N5090 X-.1385 Y-.1428
N5100 X-.1253 Y-.1394
N5110 X-.1124 Y-.1352
N5120 X-.0998 Y-.1304
N5130 X-.0877 Y-.1249
N5140 X-.0762 Y-.119
N5150 X-.0653 Y-.1128
N5160 X-.0553 Y-.1064
N5170 X-.0461 Y-.0998
N5180 X-.0378 Y-.0931
N5190 X-.0305 Y-.0863
N5200 X-.0242 Y-.0797
N5210 X-.0189 Y-.0732
N5220 X-.0145 Y-.067
N5230 X-.0109 Y-.0614
N5240 X-.008 Y-.0563
N5250 X-.0057 Y-.0519
N5260 X-.0038 Y-.0481
N5270 X-.0024 Y-.0448
N5280 X-.0012 Y-.0421
N5290 X-.0001 Y-.0398
N5300 X.0008 Y-.038
N5310 X.002 Y-.0354
N5320 X.0088 Y-.0179
N5330 X.0195 Y.0095 Z.3471
N5340 X.0395 Y.0607
N5350 G0 Z.4433
N5360 X-1.666 Y-1.4221
N5370 Z.1867
N5380 G1 X-1.5729 Y-1.4563 F300.
N5390 X-1.5243 Y-1.4742
N5400 G2 X-1.4938 Y-1.4938 I-.0291 J-.0792
N5410 G1 X-1.4895 Y-1.4972
N5420 X-1.4815 Y-1.5037
N5430 X-1.4719 Y-1.5114
N5440 X-1.4614 Y-1.5198
N5450 X-1.4502 Y-1.5285
N5460 X-1.4385 Y-1.5375
N5470 X-1.4264 Y-1.5466
N5480 X-1.414 Y-1.5559
N5490 X-1.4012 Y-1.5652
N5500 X-1.3882 Y-1.5745
N5510 X-1.375 Y-1.5839
N5520 X-1.3615 Y-1.5933
N5530 X-1.3478 Y-1.6026
N5540 X-1.3339 Y-1.6119
N5550 X-1.3198 Y-1.6212
N5560 X-1.3055 Y-1.6303
N5570 X-1.2911 Y-1.6395
N5580 X-1.2765 Y-1.6485
N5590 X-1.2618 Y-1.6575
N5600 X-1.2469 Y-1.6663
N5610 X-1.2319 Y-1.6751
N5620 X-1.2167 Y-1.6838
N5630 X-1.2014 Y-1.6924
N5640 X-1.186 Y-1.7009
N5650 X-1.1705 Y-1.7092
N5660 X-1.1548 Y-1.7175
N5670 X-1.139 Y-1.7256
N5680 X-1.1231 Y-1.7336
N5690 X-1.1071 Y-1.7415
N5700 X-1.091 Y-1.7492
N5710 X-1.0748 Y-1.7569
N5720 X-1.0585 Y-1.7644
N5730 X-1.0421 Y-1.7717
N5740 X-1.0256 Y-1.779
N5750 X-1.009 Y-1.7861
N5760 X-.9923 Y-1.793
N5770 X-.9755 Y-1.7998
N5780 X-.9586 Y-1.8065
N5790 X-.9417 Y-1.813
N5800 X-.9246 Y-1.8194
N5810 X-.9075 Y-1.8256
N5820 X-.8903 Y-1.8317
N5830 X-.873 Y-1.8376
N5840 X-.8557 Y-1.8434
N5850 X-.8383 Y-1.849
N5860 X-.8208 Y-1.8544
N5870 X-.8032 Y-1.8597
N5880 X-.7856 Y-1.8649
N5890 X-.7679 Y-1.8699
N5900 X-.7502 Y-1.8747
N5910 X-.7323 Y-1.8794
N5920 X-.7145 Y-1.8839
N5930 X-.6966 Y-1.8882
N5940 X-.6786 Y-1.8924
N5950 X-.6606 Y-1.8964
N5960 X-.6425 Y-1.9002
N5970 X-.6244 Y-1.9039
N5980 X-.6062 Y-1.9074
N5990 X-.588 Y-1.9108
N6000 X-.5697 Y-1.9139
N6010 X-.5514 Y-1.9169
N6020 X-.5331 Y-1.9198
N6030 X-.5147 Y-1.9224
N6040 X-.4963 Y-1.9249
N6050 X-.4779 Y-1.9272
N6060 X-.4594 Y-1.9293
N6070 X-.4409 Y-1.9313
N6080 X-.4224 Y-1.9331
N6090 X-.4039 Y-1.9347
N6100 X-.3853 Y-1.9362
N6110 X-.3667 Y-1.9374
N6120 X-.3481 Y-1.9385
N6130 X-.3295 Y-1.9394
N6140 X-.3108 Y-1.9401
N6150 X-.2922 Y-1.9407
N6160 X-.2735 Y-1.9411
N6170 X-.2548 Y-1.9413
N6180 X-.2361
N6190 X-.2174 Y-1.9411
N6200 X-.1987 Y-1.9408
N6210 X-.18 Y-1.9403
N6220 X-.1613 Y-1.9395
N6230 X-.1426 Y-1.9387
N6240 X-.1239 Y-1.9376
N6250 X-.1052 Y-1.9364
N6260 X-.0865 Y-1.9349
N6270 X-.0678 Y-1.9333
N6280 X-.0492 Y-1.9315
N6290 X-.0305 Y-1.9296
N6300 X-.0118 Y-1.9274
N6310 X.0068 Y-1.9251
N6320 X.0254 Y-1.9225
N6330 X.044 Y-1.9198
N6340 X.0626 Y-1.917
N6350 X.0811 Y-1.9139
N6360 X.0997 Y-1.9106
N6370 X.1182 Y-1.9072
N6380 X.1367 Y-1.9036
N6390 X.1551 Y-1.8998
N6400 X.1735 Y-1.8958
N6410 X.1919 Y-1.8917
N6420 X.2103 Y-1.8873
N6430 X.2286 Y-1.8828
N6440 X.2469 Y-1.8781
N6450 X.2651 Y-1.8732
N6460 X.2833 Y-1.8681
N6470 X.3014 Y-1.8629
N6480 X.3196 Y-1.8574
N6490 X.3376 Y-1.8518
N6500 X.3556 Y-1.846
N6510 X.3736 Y-1.84
N6520 X.3915 Y-1.8339
N6530 X.4094 Y-1.8275
N6540 X.4272 Y-1.821
N6550 X.4449 Y-1.8143
N6560 X.4626 Y-1.8074
N6570 X.4803 Y-1.8003
N6580 X.4978 Y-1.7931
N6590 X.5153 Y-1.7856
N6600 X.5328 Y-1.778
N6610 X.5502 Y-1.7702
N6620 X.5675 Y-1.7623
N6630 X.5847 Y-1.7541
N6640 X.6019 Y-1.7458
N6650 X.619 Y-1.7373
N6660 X.636 Y-1.7288
N6670 X.653 Y-1.7203
N6680 X.6698 Y-1.712
N6690 X.6865 Y-1.7037
N6700 X.7032 Y-1.6954
N6710 X.7198 Y-1.6871
N6720 X.7362 Y-1.6788
N6730 X.7526 Y-1.6704
N6740 X.7689 Y-1.662
N6750 X.7851 Y-1.6536
N6760 X.8012 Y-1.6451
N6770 X.8173 Y-1.6365
N6780 X.8332 Y-1.6279
N6790 X.8491 Y-1.6191
N6800 X.8648 Y-1.6103
N6810 X.8805 Y-1.6013
N6820 X.8961 Y-1.5923
N6830 X.9116 Y-1.5831
N6840 X.927 Y-1.5738
N6850 X.9423 Y-1.5645
N6860 X.9575 Y-1.5549
N6870 X.9726 Y-1.5453
N6880 X.9877 Y-1.5355
N6890 X1.0026 Y-1.5257
N6900 X1.0174 Y-1.5156
N6910 X1.0322 Y-1.5055
N6920 X1.0468 Y-1.4952
N6930 X1.0614 Y-1.4848
N6940 X1.0758 Y-1.4743
N6950 X1.0901 Y-1.4637
N6960 X1.1044 Y-1.4529
N6970 X1.1185 Y-1.4419
N6980 X1.1325 Y-1.4309
N6990 X1.1464 Y-1.4197
N7000 X1.1602 Y-1.4084
N7010 X1.1739 Y-1.397
N7020 X1.1875 Y-1.3854
N7030 X1.2009 Y-1.3737
N7040 X1.2143 Y-1.3619
N7050 X1.2275 Y-1.3499
N7060 X1.2406 Y-1.3379
N7070 X1.2536 Y-1.3257
N7080 X1.2665 Y-1.3133
N7090 X1.2793 Y-1.3009
N7100 X1.2919 Y-1.2883
N7110 X1.3044 Y-1.2756
N7120 X1.3168 Y-1.2628
N7130 X1.3291 Y-1.2499
N7140 X1.3412 Y-1.2368
N7150 X1.3532 Y-1.2237
N7160 X1.3651 Y-1.2104
N7170 X1.3769 Y-1.197
N7180 X1.3885 Y-1.1835
N7190 X1.4 Y-1.1699
N7200 X1.4113 Y-1.1561
N7210 X1.4226 Y-1.1423
N7220 X1.4336 Y-1.1284
N7230 X1.4446 Y-1.1143
N7240 X1.4554 Y-1.1001
N7250 X1.4661 Y-1.0859
N7260 X1.4766 Y-1.0715
N7270 X1.487 Y-1.057
N7280 X1.4973 Y-1.0425
N7290 X1.5074 Y-1.0278
N7300 X1.5173 Y-1.013
N7310 X1.5271 Y-.9981
N7320 X1.5368 Y-.9832
N7330 X1.5463 Y-.9681
N7340 X1.5557 Y-.953
N7350 X1.565 Y-.9377
N7360 X1.574 Y-.9224
N7370 X1.583 Y-.907
N7380 X1.5918 Y-.8915
N7390 X1.6004 Y-.8759
N7400 X1.6089 Y-.8602
N7410 X1.6172 Y-.8445
N7420 X1.6254 Y-.8287
N7430 X1.6334 Y-.8127
N7440 X1.6412 Y-.7968
N7450 X1.6489 Y-.7807
N7460 X1.6565 Y-.7646
N7470 X1.6639 Y-.7483
N7480 X1.6711 Y-.7321
N7490 X1.6782 Y-.7157
N7500 X1.6851 Y-.6993
N7510 X1.6918 Y-.6828
N7520 X1.6984 Y-.6662
N7530 X1.7048 Y-.6496
N7540 X1.7111 Y-.6329
N7550 X1.7172 Y-.6162
N7560 X1.7231 Y-.5994
N7570 X1.7289 Y-.5826
N7580 X1.7345 Y-.5656
N7590 X1.7399 Y-.5487
N7600 X1.7452 Y-.5317
N7610 X1.7503 Y-.5146
N7620 X1.7553 Y-.4975
N7630 X1.76 Y-.4803
N7640 X1.7646 Y-.4631
N7650 X1.7691 Y-.4458
N7660 X1.7734 Y-.4286
N7670 X1.7775 Y-.4112
N7680 X1.7814 Y-.3938
N7690 X1.7851 Y-.3764
N7700 X1.7887 Y-.359
N7710 X1.7922 Y-.3415
N7720 X1.7954 Y-.324
N7730 X1.7985 Y-.3064
N7740 X1.8014 Y-.2888
N7750 X1.8041 Y-.2712
N7760 X1.8067 Y-.2536
N7770 X1.8091 Y-.236
N7780 X1.8113 Y-.2183
N7790 X1.8133 Y-.2006
N7800 X1.8152 Y-.1829
N7810 X1.8169 Y-.1651
N7820 X1.8184 Y-.1474
N7830 X1.8198 Y-.1296
N7840 X1.821 Y-.1118
N7850 X1.822 Y-.0941
N7860 X1.8228 Y-.0763
N7870 X1.8235 Y-.0585
N7880 X1.824 Y-.0406
N7890 X1.8243 Y-.0228
N7900 X1.8244 Y-.005
N7910 Y.0128
N7920 X1.8241 Y.0306
N7930 X1.8238 Y.0484
N7940 X1.8232 Y.0662
N7950 X1.8225 Y.084
N7960 X1.8216 Y.1018
N7970 X1.8205 Y.1196
N7980 X1.8192 Y.1374
N7990 X1.8178 Y.1551
N8000 X1.8162 Y.1729
N8010 X1.8144 Y.1906
N8020 X1.8125 Y.2083
N8030 X1.8103 Y.226
N8040 X1.8081 Y.2437
N8050 X1.8056 Y.2613
N8060 X1.803 Y.2789
N8070 X1.8001 Y.2965
N8080 X1.7972 Y.3141
N8090 X1.794 Y.3316
N8100 X1.7907 Y.3491
N8110 X1.7872 Y.3666
N8120 X1.7835 Y.384
N8130 X1.7797 Y.4014
N8140 X1.7757 Y.4188
N8150 X1.7715 Y.4361
N8160 X1.7672 Y.4534
N8170 X1.7627 Y.4706
N8180 X1.758 Y.4878
N8190 X1.7531 Y.505
N8200 X1.7481 Y.5221
N8210 X1.7429 Y.5391
N8220 X1.7376 Y.5561
N8230 X1.7321 Y.573
N8240 X1.7264 Y.5899
N8250 X1.7205 Y.6068
N8260 X1.7145 Y.6235
N8270 X1.7084 Y.6402
N8280 X1.702 Y.6569
N8290 X1.6955 Y.6735
N8300 X1.6889 Y.69
N8310 X1.6821 Y.7065
N8320 X1.6751 Y.7229
N8330 X1.6679 Y.7392
N8340 X1.6607 Y.7554
N8350 X1.6532 Y.7716
N8360 X1.6456 Y.7877
N8370 X1.6378 Y.8038
N8380 X1.6299 Y.8197
N8390 X1.6218 Y.8356
N8400 X1.6136 Y.8514
N8410 X1.6052 Y.8671
N8420 X1.5966 Y.8827
N8430 X1.5879 Y.8983
N8440 X1.5791 Y.9137
N8450 X1.5701 Y.9291
N8460 X1.5609 Y.9444
N8470 X1.5516 Y.9596
N8480 X1.5422 Y.9747
N8490 X1.5326 Y.9897
N8500 X1.5229 Y1.0046
N8510 X1.513 Y1.0195
N8520 X1.503 Y1.0342
N8530 X1.4928 Y1.0488
N8540 X1.4825 Y1.0634
N8550 X1.472 Y1.0778
N8560 X1.4614 Y1.0921
N8570 X1.4507 Y1.1063
N8580 X1.4398 Y1.1204
N8590 X1.4288 Y1.1344
N8600 X1.4177 Y1.1483
N8610 X1.4064 Y1.1621
N8620 X1.395 Y1.1758
N8630 X1.3834 Y1.1894
N8640 X1.3717 Y1.2028
N8650 X1.3599 Y1.2162
N8660 X1.348 Y1.2294
N8670 X1.3359 Y1.2425
N8680 X1.3237 Y1.2555
N8690 X1.3114 Y1.2683
N8700 X1.2989 Y1.2811
N8710 X1.2864 Y1.2937
N8720 X1.2737 Y1.3062
N8730 X1.2609 Y1.3186
N8740 X1.2479 Y1.3308
N8750 X1.2349 Y1.343
N8760 X1.2217 Y1.355
N8770 X1.2084 Y1.3668
N8780 X1.195 Y1.3786
N8790 X1.1815 Y1.3902
N8800 X1.1679 Y1.4016
N8810 X1.1541 Y1.413
N8820 X1.1403 Y1.4242
N8830 X1.1263 Y1.4352
N8840 X1.1122 Y1.4462
N8850 X1.0981 Y1.457
N8860 X1.0838 Y1.4676
N8870 X1.0694 Y1.4781
N8880 X1.0549 Y1.4885
N8890 X1.0403 Y1.4987
N8900 X1.0256 Y1.5088
N8910 X1.0109 Y1.5188
N8920 X.996 Y1.5286
N8930 X.981 Y1.5382
N8940 X.9659 Y1.5477
N8950 X.9508 Y1.5571
N8960 X.9355 Y1.5663
N8970 X.9202 Y1.5753
N8980 X.9048 Y1.5843
N8990 X.8892 Y1.593
N9000 X.8736 Y1.6016
N9010 X.858 Y1.6101
N9020 X.8422 Y1.6184
N9030 X.8264 Y1.6265
N9040 X.8104 Y1.6345
N9050 X.7944 Y1.6424
N9060 X.7784 Y1.65
N9070 X.7622 Y1.6576
N9080 X.746 Y1.6649
N9090 X.7297 Y1.6721
N9100 X.7133 Y1.6792
N9110 X.6969 Y1.6861
N9120 X.6804 Y1.6928
N9130 X.6638 Y1.6993
N9140 X.6472 Y1.7057
N9150 X.6305 Y1.712
N9160 X.6138 Y1.7181
N9170 X.597 Y1.724
N9180 X.5801 Y1.7297
N9190 X.5632 Y1.7353
N9200 X.5462 Y1.7407
N9210 X.5292 Y1.746
N9220 X.5121 Y1.7511
N9230 X.495 Y1.756
N9240 X.4778 Y1.7607
N9250 X.4606 Y1.7653
N9260 X.4433 Y1.7697
N9270 X.426 Y1.774
N9280 X.4087 Y1.778
N9290 X.3913 Y1.7819
N9300 X.3739 Y1.7857
N9310 X.3564 Y1.7892
N9320 X.339 Y1.7926
N9330 X.3214 Y1.7959
N9340 X.3039 Y1.7989
N9350 X.2863 Y1.8018
N9360 X.2687 Y1.8045
N9370 X.2511 Y1.807
N9380 X.2334 Y1.8094
N9390 X.2157 Y1.8116
N9400 X.198 Y1.8136
N9410 X.1803 Y1.8155
N9420 X.1626 Y1.8171
N9430 X.1448 Y1.8186
N9440 X.127 Y1.82
N9450 X.1093 Y1.8211
N9460 X.0915 Y1.8221
N9470 X.0737 Y1.8229
N9480 X.0559 Y1.8235
N9490 X.0381 Y1.824
N9500 X.0202 Y1.8243
N9510 X.0024 Y1.8244
N9520 X-.0154 Y1.8243
N9530 X-.0332 Y1.8241
N9540 X-.051 Y1.8237
N9550 X-.0688 Y1.8231
N9560 X-.0866 Y1.8223
N9570 X-.1044 Y1.8214
N9580 X-.1222 Y1.8203
N9590 X-.14 Y1.819
N9600 X-.1577 Y1.8176
N9610 X-.1755 Y1.8159
N9620 X-.1932 Y1.8141
N9630 X-.2109 Y1.8122
N9640 X-.2286 Y1.81
N9650 X-.2462 Y1.8077
N9660 X-.2639 Y1.8052
N9670 X-.2815 Y1.8026
N9680 X-.2991 Y1.7997
N9690 X-.3166 Y1.7967
N9700 X-.3342 Y1.7935
N9710 X-.3517 Y1.7902
N9720 X-.3691 Y1.7867
N9730 X-.3866 Y1.783
N9740 X-.404 Y1.7791
N9750 X-.4213 Y1.7751
N9760 X-.4386 Y1.7709
N9770 X-.4559 Y1.7665
N9780 X-.4731 Y1.762
N9790 X-.4903 Y1.7573
N9800 X-.5074 Y1.7524
N9810 X-.5245 Y1.7474
N9820 X-.5416 Y1.7422
N9830 X-.5586 Y1.7368
N9840 X-.5755 Y1.7313
N9850 X-.5924 Y1.7256
N9860 X-.6092 Y1.7197
N9870 X-.626 Y1.7137
N9880 X-.6427 Y1.7075
N9890 X-.6593 Y1.7011
N9900 X-.6759 Y1.6946
N9910 X-.6924 Y1.6879
N9920 X-.7089 Y1.6811
N9930 X-.7252 Y1.6741
N9940 X-.7415 Y1.6669
N9950 X-.7578 Y1.6596
N9960 X-.774 Y1.6521
N9970 X-.7901 Y1.6445
N9980 X-.8061 Y1.6367
N9990 X-.822 Y1.6287
N100 X-.8379 Y1.6206
N110 X-.8537 Y1.6124
N120 X-.8694 Y1.6039
N130 X-.885 Y1.5954
N140 X-.9005 Y1.5867
N150 X-.916 Y1.5778
N160 X-.9313 Y1.5688
N170 X-.9466 Y1.5596
N180 X-.9618 Y1.5503
N190 X-.9769 Y1.5408
N200 X-.9919 Y1.5312
N210 X-1.0068 Y1.5214
N220 X-1.0216 Y1.5115
N230 X-1.0363 Y1.5015
N240 X-1.0509 Y1.4913
N250 X-1.0655 Y1.481
N260 X-1.0799 Y1.4705
N270 X-1.0942 Y1.4599
N280 X-1.1084 Y1.4491
N290 X-1.1225 Y1.4382
N300 X-1.1365 Y1.4272
N310 X-1.1503 Y1.416
N320 X-1.1641 Y1.4047
N330 X-1.1778 Y1.3933
N340 X-1.1913 Y1.3817
N350 X-1.2048 Y1.37
N360 X-1.2181 Y1.3582
N370 X-1.2313 Y1.3462
N380 X-1.2444 Y1.3342
N390 X-1.2573 Y1.3219
N400 X-1.2702 Y1.3096
N410 X-1.2829 Y1.2971
N420 X-1.2955 Y1.2845
N430 X-1.308 Y1.2718
N440 X-1.3204 Y1.259
N450 X-1.3326 Y1.246
N460 X-1.3447 Y1.233
N470 X-1.3567 Y1.2198
N480 X-1.3685 Y1.2065
N490 X-1.3802 Y1.1931
N500 X-1.3918 Y1.1795
N510 X-1.4033 Y1.1659
N520 X-1.4146 Y1.1521
N530 X-1.4258 Y1.1382
N540 X-1.4368 Y1.1243
N550 X-1.4477 Y1.1102
N560 X-1.4585 Y1.096
N570 X-1.4691 Y1.0817
N580 X-1.4796 Y1.0673
N590 X-1.49 Y1.0528
N600 X-1.5002 Y1.0382
N610 X-1.5103 Y1.0235
N620 X-1.5202 Y1.0087
N630 X-1.53 Y.9938
N640 X-1.5396 Y.9788
N650 X-1.5491 Y.9637
N660 X-1.5584 Y.9486
N670 X-1.5676 Y.9333
N680 X-1.5766 Y.918
N690 X-1.5855 Y.9025
N700 X-1.5943 Y.887
N710 X-1.6029 Y.8714
N720 X-1.6113 Y.8557
N730 X-1.6196 Y.8399
N740 X-1.6277 Y.8241
N750 X-1.6357 Y.8081
N760 X-1.6435 Y.7921
N770 X-1.6511 Y.776
N780 X-1.6586 Y.7599
N790 X-1.666 Y.7436
N800 X-1.6732 Y.7273
N810 X-1.6802 Y.7109
N820 X-1.687 Y.6945
N830 X-1.6937 Y.678
N840 X-1.7003 Y.6614
N850 X-1.7067 Y.6448
N860 X-1.7129 Y.6281
N870 X-1.7189 Y.6113
N880 X-1.7248 Y.5945
N890 X-1.7305 Y.5777
N900 X-1.7361 Y.5607
N910 X-1.7415 Y.5437
N920 X-1.7467 Y.5267
N930 X-1.7518 Y.5096
N940 X-1.7567 Y.4925
N950 X-1.7614 Y.4753
N960 X-1.766 Y.4581
N970 X-1.7703 Y.4408
N980 X-1.7746 Y.4235
N990 X-1.7786 Y.4062
N1000 X-1.7825 Y.3888
N1010 X-1.7862 Y.3714
N1020 X-1.7897 Y.3539
N1030 X-1.7931 Y.3364
N1040 X-1.7963 Y.3189
N1050 X-1.7993 Y.3013
N1060 X-1.8022 Y.2837
N1070 X-1.8049 Y.2661
N1080 X-1.8074 Y.2485
N1090 X-1.8097 Y.2308
N1100 X-1.8119 Y.2131
N1110 X-1.8139 Y.1954
N1120 X-1.8157 Y.1777
N1130 X-1.8174 Y.16
N1140 X-1.8189 Y.1422
N1150 X-1.8202 Y.1245
N1160 X-1.8213 Y.1067
N1170 X-1.8222 Y.0889
N1180 X-1.823 Y.0711
N1190 X-1.8236 Y.0533
N1200 X-1.8241 Y.0355
N1210 X-1.8243 Y.0177
N1220 X-1.8244 Y-.0002
N1230 X-1.8243 Y-.018
N1240 X-1.8241 Y-.0358
N1250 X-1.8236 Y-.0536
N1260 X-1.823 Y-.0714
N1270 X-1.8222 Y-.0892
N1280 X-1.8213 Y-.107
N1290 X-1.8201 Y-.1248
N1300 X-1.8188 Y-.1425
N1310 X-1.8173 Y-.1603
N1320 X-1.8157 Y-.178
N1330 X-1.8139 Y-.1958
N1340 X-1.8119 Y-.2135
N1350 X-1.8097 Y-.2311
N1360 X-1.8074 Y-.2488
N1370 X-1.8048 Y-.2664
N1380 X-1.8022 Y-.284
N1390 X-1.7993 Y-.3016
N1400 X-1.7963 Y-.3192
N1410 X-1.7931 Y-.3367
N1420 X-1.7897 Y-.3542
N1430 X-1.7861 Y-.3717
N1440 X-1.7824 Y-.3891
N1450 X-1.7785 Y-.4065
N1460 X-1.7745 Y-.4238
N1470 X-1.7703 Y-.4411
N1480 X-1.7659 Y-.4584
N1490 X-1.7613 Y-.4756
N1500 X-1.7566 Y-.4928
N1510 X-1.7517 Y-.5099
N1520 X-1.7466 Y-.527
N1530 X-1.7414 Y-.544
N1540 X-1.736 Y-.561
N1550 X-1.7304 Y-.5779
N1560 X-1.7247 Y-.5948
N1570 X-1.7188 Y-.6116
N1580 X-1.7128 Y-.6284
N1590 X-1.7066 Y-.6451
N1600 X-1.7002 Y-.6617
N1610 X-1.6936 Y-.6783
N1620 X-1.6869 Y-.6948
N1630 X-1.6801 Y-.7112
N1640 X-1.673 Y-.7276
N1650 X-1.6658 Y-.7439
N1660 X-1.6585 Y-.7601
N1670 X-1.651 Y-.7763
N1680 X-1.6433 Y-.7924
N1690 X-1.6355 Y-.8084
N1700 X-1.6276 Y-.8243
N1710 X-1.6194 Y-.8402
N1720 X-1.6111 Y-.856
N1730 X-1.6027 Y-.8716
N1740 X-1.5941 Y-.8873
N1750 X-1.5854 Y-.9028
N1760 X-1.5765 Y-.9182
N1770 X-1.5674 Y-.9336
N1780 X-1.5583 Y-.9488
N1790 X-1.5489 Y-.964
N1800 X-1.5394 Y-.9791
N1810 X-1.5298 Y-.9941
N1820 X-1.52 Y-1.009
N1830 X-1.5101 Y-1.0238
N1840 X-1.5 Y-1.0385
N1850 X-1.4898 Y-1.053
N1860 X-1.4795 Y-1.0675
N1870 X-1.469 Y-1.0819
N1880 X-1.4583 Y-1.0962
N1890 X-1.4476 Y-1.1104
N1900 X-1.4366 Y-1.1245
N1910 X-1.4256 Y-1.1385
N1920 X-1.4144 Y-1.1523
N1930 X-1.4031 Y-1.1661
N1940 X-1.3922 Y-1.179
N1950 X-1.3812 Y-1.1914
N1960 X-1.3699 Y-1.2038
N1970 X-1.3583 Y-1.216
N1980 X-1.3464 Y-1.228
N1990 X-1.3342 Y-1.2399
N2000 X-1.3217 Y-1.2517
N2010 X-1.3091 Y-1.2633
N2020 X-1.2962 Y-1.2747
N2030 X-1.2831 Y-1.286
N2040 X-1.2697 Y-1.2971
N2050 X-1.2563 Y-1.3081
N2060 X-1.2426 Y-1.3189
N2070 X-1.2287 Y-1.3295
N2080 X-1.2147 Y-1.34
N2090 X-1.2006 Y-1.3503
N2100 X-1.1862 Y-1.3604
N2110 X-1.1718 Y-1.3704
N2120 X-1.1572 Y-1.3802
N2130 X-1.1425 Y-1.3899
N2140 X-1.1276 Y-1.3994
N2150 X-1.1127 Y-1.4087
N2160 X-1.0976 Y-1.4179
N2170 X-1.0824 Y-1.4269
N2180 X-1.0671 Y-1.4357
N2190 X-1.0517 Y-1.4444
N2200 X-1.0362 Y-1.4529
N2210 X-1.0206 Y-1.4612
N2220 X-1.0049 Y-1.4693
N2230 X-.9891 Y-1.4773
N2240 X-.9732 Y-1.4851
N2250 X-.9572 Y-1.4928
N2260 X-.9412 Y-1.5003
N2270 X-.925 Y-1.5076
N2280 X-.9088 Y-1.5147
N2290 X-.8925 Y-1.5216
N2300 X-.8761 Y-1.5284
N2310 X-.8597 Y-1.535
N2320 X-.8432 Y-1.5415
N2330 X-.8266 Y-1.5477
N2340 X-.8099 Y-1.5538
N2350 X-.7932 Y-1.5597
N2360 X-.7764 Y-1.5655
N2370 X-.7596 Y-1.571
N2380 X-.7427 Y-1.5764
N2390 X-.7257 Y-1.5816
N2400 X-.7087 Y-1.5866
N2410 X-.6917 Y-1.5914
N2420 X-.6746 Y-1.5961
N2430 X-.6574 Y-1.6006
N2440 X-.6402 Y-1.6049
N2450 X-.6229 Y-1.609
N2460 X-.6056 Y-1.6129
N2470 X-.5883 Y-1.6166
N2480 X-.5709 Y-1.6202
N2490 X-.5535 Y-1.6236
N2500 X-.5361 Y-1.6268
N2510 X-.5186 Y-1.6298
N2520 X-.5011 Y-1.6326
N2530 X-.4836 Y-1.6353
N2540 X-.466 Y-1.6377
N2550 X-.4484 Y-1.64
N2560 X-.4308 Y-1.6421
N2570 X-.4132 Y-1.644
N2580 X-.3956 Y-1.6457
N2590 X-.3779 Y-1.6472
N2600 X-.3602 Y-1.6485
N2610 X-.3425 Y-1.6497
N2620 X-.3248 Y-1.6506
N2630 X-.3071 Y-1.6514
N2640 X-.2894 Y-1.652
N2650 X-.2717 Y-1.6523
N2660 X-.254 Y-1.6525
N2670 X-.2363
N2680 X-.2185 Y-1.6524
N2690 X-.2008 Y-1.652
N2700 X-.1831 Y-1.6514
N2710 X-.1654 Y-1.6507
N2720 X-.1477 Y-1.6497
N2730 X-.13 Y-1.6486
N2740 X-.1124 Y-1.6473
N2750 X-.0947 Y-1.6458
N2760 X-.0771 Y-1.6441
N2770 X-.0595 Y-1.6422
N2780 X-.0419 Y-1.6401
N2790 X-.0243 Y-1.6379
N2800 X-.0068 Y-1.6354
N2810 X.0107 Y-1.6328
N2820 X.0282 Y-1.6299
N2830 X.0456 Y-1.6269
N2840 X.063 Y-1.6237
N2850 X.0804 Y-1.6203
N2860 X.0978 Y-1.6167
N2870 X.115 Y-1.6129
N2880 X.1323 Y-1.609
N2890 X.1495 Y-1.6048
N2900 X.1667 Y-1.6005
N2910 X.1838 Y-1.5959
N2920 X.2008 Y-1.5912
N2930 X.2178 Y-1.5863
N2940 X.2348 Y-1.5813
N2950 X.2517 Y-1.576
N2960 X.2685 Y-1.5705
N2970 X.2853 Y-1.5649
N2980 X.302 Y-1.5591
N2990 X.3186 Y-1.5531
N3000 X.3352 Y-1.5469
N3010 X.3517 Y-1.5405
N3020 X.3683 Y-1.5339
N3030 X.3849 Y-1.5272
N3040 X.4015 Y-1.5202
N3050 X.4182 Y-1.5131
N3060 X.4349 Y-1.5059
N3070 X.4515 Y-1.4985
N3080 X.4682 Y-1.4911
N3090 X.4848 Y-1.4835
N3100 X.5014 Y-1.4759
N3110 X.518 Y-1.4682
N3120 X.5345 Y-1.4604
N3130 X.5509 Y-1.4525
N3140 X.5673 Y-1.4445
N3150 X.5836 Y-1.4365
N3160 X.5999 Y-1.4283
N3170 X.616 Y-1.4201
N3180 X.6321 Y-1.4118
N3190 X.6481 Y-1.4033
N3200 X.6641 Y-1.3948
N3210 X.6799 Y-1.3862
N3220 X.6957 Y-1.3774
N3230 X.7113 Y-1.3686
N3240 X.7269 Y-1.3596
N3250 X.7424 Y-1.3505
N3260 X.7577 Y-1.3413
N3270 X.773 Y-1.332
N3280 X.7882 Y-1.3225
N3290 X.8032 Y-1.3129
N3300 X.8182 Y-1.3032
N3310 X.833 Y-1.2933
N3320 X.8478 Y-1.2833
N3330 X.8624 Y-1.2732
N3340 X.8769 Y-1.2629
N3350 X.8913 Y-1.2525
N3360 X.9056 Y-1.242
N3370 X.9197 Y-1.2313
N3380 X.9338 Y-1.2204
N3390 X.9477 Y-1.2095
N3400 X.9615 Y-1.1983
N3410 X.9752 Y-1.1871
N3420 X.9887 Y-1.1757
N3430 X1.0021 Y-1.1641
N3440 X1.0154 Y-1.1524
N3450 X1.0285 Y-1.1406
N3460 X1.0416 Y-1.1286
N3470 X1.0544 Y-1.1165
N3480 X1.0672 Y-1.1043
N3490 X1.0797 Y-1.0919
N3500 X1.0922 Y-1.0793
N3510 X1.1045 Y-1.0667
N3520 X1.1167 Y-1.0538
N3530 X1.1287 Y-1.0409
N3540 X1.1406 Y-1.0278
N3550 X1.1523 Y-1.0146
N3560 X1.1639 Y-1.0013
N3570 X1.1753 Y-.9878
N3580 X1.1865 Y-.9743
N3590 X1.1976 Y-.9605
N3600 X1.2086 Y-.9467
N3610 X1.2194 Y-.9327
N3620 X1.23 Y-.9187
N3630 X1.2405 Y-.9044
N3640 X1.2508 Y-.8901
N3650 X1.2609 Y-.8757
N3660 X1.2709 Y-.8611
N3670 X1.2807 Y-.8465
N3680 X1.2903 Y-.8317
N3690 X1.2998 Y-.8168
N3700 X1.3091 Y-.8018
N3710 X1.3182 Y-.7867
N3720 X1.3272 Y-.7715
N3730 X1.3359 Y-.7562
N3740 X1.3445 Y-.7408
N3750 X1.353 Y-.7253
N3760 X1.3612 Y-.7097
N3770 X1.3693 Y-.694
N3780 X1.3771 Y-.6782
N3790 X1.3848 Y-.6624
N3800 X1.3924 Y-.6464
N3810 X1.3997 Y-.6304
N3820 X1.4068 Y-.6143
N3830 X1.4138 Y-.598
N3840 X1.4206 Y-.5818
N3850 X1.4272 Y-.5654
N3860 X1.4336 Y-.549
N3870 X1.4398 Y-.5325
N3880 X1.4458 Y-.5159
N3890 X1.4516 Y-.4992
N3900 X1.4573 Y-.4825
N3910 X1.4627 Y-.4657
N3920 X1.468 Y-.4489
N3930 X1.473 Y-.432
N3940 X1.4779 Y-.4151
N3950 X1.4826 Y-.3981
N3960 X1.4871 Y-.381
N3970 X1.4913 Y-.3639
N3980 X1.4954 Y-.3467
N3990 X1.4993 Y-.3295
N4000 X1.503 Y-.3123
N4010 X1.5065 Y-.295
N4020 X1.5098 Y-.2777
N4030 X1.5129 Y-.2603
N4040 X1.5157 Y-.2429
N4050 X1.5184 Y-.2255
N4060 X1.5209 Y-.208
N4070 X1.5232 Y-.1905
N4080 X1.5253 Y-.173
N4090 X1.5272 Y-.1555
N4100 X1.5289 Y-.1379
N4110 X1.5304 Y-.1203
N4120 X1.5316 Y-.1028
N4130 X1.5327 Y-.0851
N4140 X1.5336 Y-.0675
N4150 X1.5343 Y-.0499
N4160 X1.5347 Y-.0323
N4170 X1.535 Y-.0146
N4180 X1.5351 Y.003
N4190 X1.5349 Y.0206
N4200 X1.5346 Y.0383
N4210 X1.5341 Y.0559
N4220 X1.5333 Y.0735
N4230 X1.5324 Y.0911
N4240 X1.5312 Y.1087
N4250 X1.5299 Y.1263
N4260 X1.5283 Y.1439
N4270 X1.5266 Y.1614
N4280 X1.5246 Y.1789
N4290 X1.5225 Y.1965
N4300 X1.5201 Y.2139
N4310 X1.5175 Y.2314
N4320 X1.5148 Y.2488
N4330 X1.5118 Y.2662
N4340 X1.5087 Y.2835
N4350 X1.5053 Y.3009
N4360 X1.5018 Y.3181
N4370 X1.498 Y.3354
N4380 X1.494 Y.3526
N4390 X1.4899 Y.3697
N4400 X1.4856 Y.3868
N4410 X1.481 Y.4038
N4420 X1.4763 Y.4208
N4430 X1.4713 Y.4378
N4440 X1.4662 Y.4546
N4450 X1.4609 Y.4714
N4460 X1.4554 Y.4882
N4470 X1.4497 Y.5049
N4480 X1.4438 Y.5215
N4490 X1.4377 Y.5381
N4500 X1.4314 Y.5545
N4510 X1.425 Y.5709
N4520 X1.4183 Y.5873
N4530 X1.4115 Y.6035
N4540 X1.4044 Y.6197
N4550 X1.3972 Y.6358
N4560 X1.3898 Y.6518
N4570 X1.3822 Y.6677
N4580 X1.3745 Y.6836
N4590 X1.3665 Y.6993
N4600 X1.3584 Y.715
N4610 X1.3501 Y.7305
N4620 X1.3416 Y.746
N4630 X1.333 Y.7614
N4640 X1.3241 Y.7766
N4650 X1.3151 Y.7918
N4660 X1.3059 Y.8069
N4670 X1.2966 Y.8218
N4680 X1.2871 Y.8366
N4690 X1.2774 Y.8514
N4700 X1.2675 Y.866
N4710 X1.2574 Y.8805
N4720 X1.2473 Y.8949
N4730 X1.2369 Y.9092
N4740 X1.2264 Y.9233
N4750 X1.2157 Y.9373
N4760 X1.2048 Y.9513
N4770 X1.1938 Y.965
N4780 X1.1827 Y.9787
N4790 X1.1713 Y.9922
N4800 X1.1599 Y1.0056
N4810 X1.1482 Y1.0189
N4820 X1.1364 Y1.032
N4830 X1.1245 Y1.045
N4840 X1.1124 Y1.0578
N4850 X1.1002 Y1.0705
N4860 X1.0878 Y1.0831
N4870 X1.0753 Y1.0955
N4880 X1.0627 Y1.1078
N4890 X1.0499 Y1.1199
N4900 X1.0369 Y1.1319
N4910 X1.0239 Y1.1438
N4920 X1.0106 Y1.1555
N4930 X.9973 Y1.167
N4940 X.9838 Y1.1784
N4950 X.9702 Y1.1896
N4960 X.9565 Y1.2007
N4970 X.9426 Y1.2116
N4980 X.9287 Y1.2223
N4990 X.9145 Y1.2329
N5000 X.9003 Y1.2433
N5010 X.886 Y1.2536
N5020 X.8715 Y1.2637
N5030 X.8569 Y1.2736
N5040 X.8422 Y1.2834
N5050 X.8274 Y1.293
N5060 X.8125 Y1.3024
N5070 X.7975 Y1.3116
N5080 X.7824 Y1.3207
N5090 X.7672 Y1.3296
N5100 X.7518 Y1.3384
N5110 X.7364 Y1.3469
N5120 X.7209 Y1.3553
N5130 X.7053 Y1.3635
N5140 X.6896 Y1.3715
N5150 X.6738 Y1.3793
N5160 X.6579 Y1.387
N5170 X.6419 Y1.3944
N5180 X.6258 Y1.4017
N5190 X.6097 Y1.4088
N5200 X.5935 Y1.4157
N5210 X.5772 Y1.4224
N5220 X.5608 Y1.429
N5230 X.5443 Y1.4353
N5240 X.5278 Y1.4415
N5250 X.5112 Y1.4475
N5260 X.4945 Y1.4532
N5270 X.4778 Y1.4588
N5280 X.461 Y1.4642
N5290 X.4442 Y1.4694
N5300 X.4273 Y1.4744
N5310 X.4103 Y1.4792
N5320 X.3933 Y1.4839
N5330 X.3762 Y1.4883
N5340 X.3591 Y1.4925
N5350 X.3419 Y1.4965
N5360 X.3247 Y1.5004
N5370 X.3074 Y1.504
N5380 X.2901 Y1.5074
N5390 X.2728 Y1.5107
N5400 X.2554 Y1.5137
N5410 X.238 Y1.5165
N5420 X.2206 Y1.5192
N5430 X.2031 Y1.5216
N5440 X.1856 Y1.5238
N5450 X.1681 Y1.5259
N5460 X.1505 Y1.5277
N5470 X.133 Y1.5293
N5480 X.1154 Y1.5307
N5490 X.0978 Y1.532
N5500 X.0802 Y1.533
N5510 X.0626 Y1.5338
N5520 X.045 Y1.5344
N5530 X.0273 Y1.5348
N5540 X.0097 Y1.535
N5550 X-.008 Y1.5351
N5560 X-.0256 Y1.5349
N5570 X-.0432 Y1.5345
N5580 X-.0608 Y1.5339
N5590 X-.0785 Y1.5331
N5600 X-.0961 Y1.5321
N5610 X-.1137 Y1.5309
N5620 X-.1313 Y1.5295
N5630 X-.1488 Y1.5279
N5640 X-.1664 Y1.526
N5650 X-.1839 Y1.524
N5660 X-.2014 Y1.5218
N5670 X-.2189 Y1.5194
N5680 X-.2363 Y1.5168
N5690 X-.2537 Y1.514
N5700 X-.2711 Y1.511
N5710 X-.2884 Y1.5077
N5720 X-.3057 Y1.5043
N5730 X-.323 Y1.5007
N5740 X-.3402 Y1.4969
N5750 X-.3574 Y1.4929
N5760 X-.3745 Y1.4887
N5770 X-.3916 Y1.4843
N5780 X-.4086 Y1.4797
N5790 X-.4256 Y1.4749
N5800 X-.4425 Y1.4699
N5810 X-.4594 Y1.4647
N5820 X-.4762 Y1.4594
N5830 X-.4929 Y1.4538
N5840 X-.5096 Y1.448
N5850 X-.5262 Y1.4421
N5860 X-.5427 Y1.4359
N5870 X-.5592 Y1.4296
N5880 X-.5756 Y1.4231
N5890 X-.5919 Y1.4164
N5900 X-.6081 Y1.4095
N5910 X-.6243 Y1.4024
N5920 X-.6403 Y1.3952
N5930 X-.6563 Y1.3877
N5940 X-.6722 Y1.3801
N5950 X-.688 Y1.3723
N5960 X-.7037 Y1.3643
N5970 X-.7194 Y1.3561
N5980 X-.7349 Y1.3477
N5990 X-.7503 Y1.3392
N6000 X-.7657 Y1.3305
N6010 X-.7809 Y1.3216
N6020 X-.796 Y1.3125
N6030 X-.8111 Y1.3033
N6040 X-.826 Y1.2939
N6050 X-.8408 Y1.2843
N6060 X-.8555 Y1.2746
N6070 X-.8701 Y1.2647
N6080 X-.8846 Y1.2546
N6090 X-.8989 Y1.2444
N6100 X-.9132 Y1.2339
N6110 X-.9273 Y1.2234
N6120 X-.9413 Y1.2126
N6130 X-.9551 Y1.2017
N6140 X-.9689 Y1.1907
N6150 X-.9825 Y1.1795
N6160 X-.996 Y1.1681
N6170 X-1.0093 Y1.1566
N6180 X-1.0226 Y1.1449
N6190 X-1.0356 Y1.1331
N6200 X-1.0486 Y1.1211
N6210 X-1.0614 Y1.109
N6220 X-1.0741 Y1.0967
N6230 X-1.0866 Y1.0843
N6240 X-1.099 Y1.0718
N6250 X-1.1112 Y1.0591
N6260 X-1.1233 Y1.0462
N6270 X-1.1353 Y1.0333
N6280 X-1.1471 Y1.0201
N6290 X-1.1587 Y1.0069
N6300 X-1.1702 Y.9935
N6310 X-1.1815 Y.98
N6320 X-1.1927 Y.9664
N6330 X-1.2037 Y.9526
N6340 X-1.2146 Y.9387
N6350 X-1.2253 Y.9247
N6360 X-1.2359 Y.9106
N6370 X-1.2462 Y.8963
N6380 X-1.2565 Y.8819
N6390 X-1.2665 Y.8674
N6400 X-1.2764 Y.8528
N6410 X-1.2861 Y.8381
N6420 X-1.2956 Y.8233
N6430 X-1.305 Y.8083
N6440 X-1.3142 Y.7933
N6450 X-1.3232 Y.7781
N6460 X-1.3321 Y.7629
N6470 X-1.3408 Y.7475
N6480 X-1.3493 Y.7321
N6490 X-1.3576 Y.7165
N6500 X-1.3657 Y.7009
N6510 X-1.3737 Y.6851
N6520 X-1.3815 Y.6693
N6530 X-1.3891 Y.6534
N6540 X-1.3965 Y.6374
N6550 X-1.4037 Y.6213
N6560 X-1.4108 Y.6051
N6570 X-1.4176 Y.5889
N6580 X-1.4243 Y.5726
N6590 X-1.4308 Y.5562
N6600 X-1.4371 Y.5397
N6610 X-1.4432 Y.5231
N6620 X-1.4491 Y.5065
N6630 X-1.4548 Y.4898
N6640 X-1.4604 Y.4731
N6650 X-1.4657 Y.4563
N6660 X-1.4708 Y.4394
N6670 X-1.4758 Y.4225
N6680 X-1.4806 Y.4055
N6690 X-1.4851 Y.3885
N6700 X-1.4895 Y.3714
N6710 X-1.4936 Y.3542
N6720 X-1.4976 Y.3371
N6730 X-1.5014 Y.3198
N6740 X-1.505 Y.3026
N6750 X-1.5083 Y.2852
N6760 X-1.5115 Y.2679
N6770 X-1.5145 Y.2505
N6780 X-1.5173 Y.2331
N6790 X-1.5199 Y.2157
N6800 X-1.5222 Y.1982
N6810 X-1.5244 Y.1807
N6820 X-1.5264 Y.1632
N6830 X-1.5282 Y.1456
N6840 X-1.5297 Y.128
N6850 X-1.5311 Y.1105
N6860 X-1.5323 Y.0928
N6870 X-1.5332 Y.0752
N6880 X-1.534 Y.0576
N6890 X-1.5346 Y.04
N6900 X-1.5349 Y.0224
N6910 X-1.5351 Y.0047
N6920 X-1.535 Y-.0129
N6930 X-1.5348 Y-.0305
N6940 X-1.5343 Y-.0482
N6950 X-1.5337 Y-.0658
N6960 X-1.5328 Y-.0834
N6970 X-1.5318 Y-.101
N6980 X-1.5305 Y-.1186
N6990 X-1.529 Y-.1362
N7000 X-1.5274 Y-.1537
N7010 X-1.5255 Y-.1713
N7020 X-1.5234 Y-.1888
N7030 X-1.5212 Y-.2063
N7040 X-1.5187 Y-.2238
N7050 X-1.516 Y-.2412
N7060 X-1.5131 Y-.2586
N7070 X-1.5101 Y-.276
N7080 X-1.5068 Y-.2933
N7090 X-1.5033 Y-.3106
N7100 X-1.4997 Y-.3278
N7110 X-1.4958 Y-.345
N7120 X-1.4917 Y-.3622
N7130 X-1.4875 Y-.3793
N7140 X-1.483 Y-.3964
N7150 X-1.4784 Y-.4134
N7160 X-1.4735 Y-.4303
N7170 X-1.4685 Y-.4472
N7180 X-1.4632 Y-.4641
N7190 X-1.4578 Y-.4809
N7200 X-1.4522 Y-.4976
N7210 X-1.4464 Y-.5142
N7220 X-1.4404 Y-.5308
N7230 X-1.4342 Y-.5473
N7240 X-1.4278 Y-.5638
N7250 X-1.4212 Y-.5802
N7260 X-1.4145 Y-.5964
N7270 X-1.4075 Y-.6126
N7280 X-1.4004 Y-.6288
N7290 X-1.3931 Y-.6448
N7300 X-1.3856 Y-.6608
N7310 X-1.3779 Y-.6767
N7320 X-1.37 Y-.6925
N7330 X-1.362 Y-.7081
N7340 X-1.3538 Y-.7237
N7350 X-1.3454 Y-.7393
N7360 X-1.3368 Y-.7547
N7370 X-1.328 Y-.77
N7380 X-1.3191 Y-.7852
N7390 X-1.31 Y-.8003
N7400 X-1.3007 Y-.8153
N7410 X-1.2912 Y-.8302
N7420 X-1.2816 Y-.8449
N7430 X-1.2718 Y-.8596
N7440 X-1.2619 Y-.8741
N7450 X-1.2519 Y-.8883
N7460 X-1.2418 Y-.9022
N7470 X-1.2315 Y-.9158
N7480 X-1.2211 Y-.9293
N7490 X-1.2105 Y-.9424
N7500 X-1.1996 Y-.9554
N7510 X-1.1885 Y-.9682
N7520 X-1.1772 Y-.9807
N7530 X-1.1656 Y-.9931
N7540 X-1.1538 Y-1.0053
N7550 X-1.1418 Y-1.0173
N7560 X-1.1296 Y-1.029
N7570 X-1.1171 Y-1.0406
N7580 X-1.1044 Y-1.052
N7590 X-1.0915 Y-1.0632
N7600 X-1.0784 Y-1.0742
N7610 X-1.0651 Y-1.085
N7620 X-1.0516 Y-1.0956
N7630 X-1.038 Y-1.1061
N7640 X-1.0241 Y-1.1163
N7650 X-1.0101 Y-1.1263
N7660 X-.9959 Y-1.1361
N7670 X-.9815 Y-1.1458
N7680 X-.967 Y-1.1552
N7690 X-.9523 Y-1.1644
N7700 X-.9375 Y-1.1734
N7710 X-.9225 Y-1.1823
N7720 X-.9074 Y-1.1909
N7730 X-.8922 Y-1.1993
N7740 X-.8769 Y-1.2075
N7750 X-.8614 Y-1.2155
N7760 X-.8458 Y-1.2233
N7770 X-.8301 Y-1.2309
N7780 X-.8143 Y-1.2383
N7790 X-.7984 Y-1.2455
N7800 X-.7824 Y-1.2525
N7810 X-.7663 Y-1.2592
N7820 X-.7501 Y-1.2658
N7830 X-.7338 Y-1.2721
N7840 X-.7175 Y-1.2783
N7850 X-.701 Y-1.2842
N7860 X-.6845 Y-1.2899
N7870 X-.6679 Y-1.2954
N7880 X-.6512 Y-1.3007
N7890 X-.6345 Y-1.3058
N7900 X-.6177 Y-1.3106
N7910 X-.6008 Y-1.3153
N7920 X-.5839 Y-1.3197
N7930 X-.5669 Y-1.3239
N7940 X-.5498 Y-1.3279
N7950 X-.5327 Y-1.3317
N7960 X-.5156 Y-1.3353
N7970 X-.4984 Y-1.3386
N7980 X-.4812 Y-1.3418
N7990 X-.4639 Y-1.3447
N8000 X-.4466 Y-1.3474
N8010 X-.4293 Y-1.3498
N8020 X-.4119 Y-1.3521
N8030 X-.3946 Y-1.3541
N8040 X-.3771 Y-1.3559
N8050 X-.3597 Y-1.3575
N8060 X-.3423 Y-1.3589
N8070 X-.3248 Y-1.36
N8080 X-.3073 Y-1.3609
N8090 X-.2898 Y-1.3616
N8100 X-.2723 Y-1.3621
N8110 X-.2548 Y-1.3623
N8120 X-.2374
N8130 X-.2199 Y-1.3621
N8140 X-.2024 Y-1.3617
N8150 X-.1849 Y-1.361
N8160 X-.1674 Y-1.3601
N8170 X-.15 Y-1.359
N8180 X-.1325 Y-1.3577
N8190 X-.1151 Y-1.3562
N8200 X-.0977 Y-1.3544
N8210 X-.0804 Y-1.3524
N8220 X-.063 Y-1.3501
N8230 X-.0457 Y-1.3477
N8240 X-.0284 Y-1.345
N8250 X-.0112 Y-1.3421
N8260 X.006 Y-1.339
N8270 X.0231 Y-1.3356
N8280 X.0402 Y-1.3321
N8290 X.0573 Y-1.3283
N8300 X.0743 Y-1.3243
N8310 X.0912 Y-1.32
N8320 X.1081 Y-1.3156
N8330 X.125 Y-1.3109
N8340 X.1418 Y-1.306
N8350 X.1586 Y-1.3008
N8360 X.1754 Y-1.2955
N8370 X.1922 Y-1.2899
N8380 X.209 Y-1.2842
N8390 X.2257 Y-1.2782
N8400 X.2425 Y-1.2721
N8410 X.2592 Y-1.2658
N8420 X.2759 Y-1.2594
N8430 X.2926 Y-1.2528
N8440 X.3093 Y-1.246
N8450 X.3259 Y-1.2391
N8460 X.3425 Y-1.2321
N8470 X.359 Y-1.2249
N8480 X.3755 Y-1.2176
N8490 X.3919 Y-1.2102
N8500 X.4082 Y-1.2026
N8510 X.4245 Y-1.195
N8520 X.4407 Y-1.1871
N8530 X.4568 Y-1.1792
N8540 X.4728 Y-1.1712
N8550 X.4888 Y-1.163
N8560 X.5046 Y-1.1547
N8570 X.5204 Y-1.1462
N8580 X.5361 Y-1.1376
N8590 X.5516 Y-1.1289
N8600 X.5671 Y-1.1201
N8610 X.5825 Y-1.1111
N8620 X.5977 Y-1.1019
N8630 X.6128 Y-1.0926
N8640 X.6278 Y-1.0832
N8650 X.6427 Y-1.0736
N8660 X.6575 Y-1.0639
N8670 X.6721 Y-1.054
N8680 X.6866 Y-1.044
N8690 X.701 Y-1.0338
N8700 X.7152 Y-1.0234
N8710 X.7293 Y-1.0129
N8720 X.7432 Y-1.0023
N8730 X.7571 Y-.9914
N8740 X.7707 Y-.9804
N8750 X.7843 Y-.9693
N8760 X.7976 Y-.958
N8770 X.8108 Y-.9465
N8780 X.8239 Y-.9349
N8790 X.8368 Y-.9231
N8800 X.8495 Y-.9111
N8810 X.8621 Y-.899
N8820 X.8745 Y-.8867
N8830 X.8868 Y-.8743
N8840 X.8988 Y-.8617
N8850 X.9107 Y-.8489
N8860 X.9225 Y-.836
N8870 X.934 Y-.823
N8880 X.9454 Y-.8098
N8890 X.9565 Y-.7964
N8900 X.9675 Y-.7829
N8910 X.9783 Y-.7693
N8920 X.989 Y-.7555
N8930 X.9994 Y-.7415
N8940 X1.0096 Y-.7275
N8950 X1.0197 Y-.7133
N8960 X1.0295 Y-.6989
N8970 X1.0391 Y-.6844
N8980 X1.0486 Y-.6698
N8990 X1.0578 Y-.6551
N9000 X1.0669 Y-.6403
N9010 X1.0757 Y-.6253
N9020 X1.0843 Y-.6102
N9030 X1.0927 Y-.5949
N9040 X1.1009 Y-.5796
N9050 X1.1089 Y-.5642
N9060 X1.1166 Y-.5486
N9070 X1.1242 Y-.533
N9080 X1.1315 Y-.5172
N9090 X1.1386 Y-.5014
N9100 X1.1455 Y-.4854
N9110 X1.1521 Y-.4693
N9120 X1.1586 Y-.4532
N9130 X1.1648 Y-.437
N9140 X1.1708 Y-.4207
N9150 X1.1765 Y-.4043
N9160 X1.1821 Y-.3878
N9170 X1.1874 Y-.3712
N9180 X1.1924 Y-.3546
N9190 X1.1973 Y-.3379
N9200 X1.2019 Y-.3212
N9210 X1.2062 Y-.3044
N9220 X1.2104 Y-.2875
N9230 X1.2143 Y-.2706
N9240 X1.2179 Y-.2536
N9250 X1.2213 Y-.2365
N9260 X1.2245 Y-.2195
N9270 X1.2275 Y-.2023
N9280 X1.2302 Y-.1852
N9290 X1.2326 Y-.168
N9300 X1.2349 Y-.1508
N9310 X1.2368 Y-.1335
N9320 X1.2386 Y-.1162
N9330 X1.2401 Y-.0989
N9340 X1.2413 Y-.0816
N9350 X1.2424 Y-.0642
N9360 X1.2431 Y-.0469
N9370 X1.2437 Y-.0295
N9380 X1.244 Y-.0121
N9390 Y.0052
N9400 X1.2438 Y.0226
N9410 X1.2434 Y.04
N9420 X1.2427 Y.0573
N9430 X1.2418 Y.0747
N9440 X1.2406 Y.092
N9450 X1.2392 Y.1093
N9460 X1.2376 Y.1266
N9470 X1.2357 Y.1439
N9480 X1.2335 Y.1611
N9490 X1.2312 Y.1783
N9500 X1.2286 Y.1955
N9510 X1.2257 Y.2127
N9520 X1.2226 Y.2297
N9530 X1.2193 Y.2468
N9540 X1.2157 Y.2638
N9550 X1.2119 Y.2808
N9560 X1.2079 Y.2976
N9570 X1.2036 Y.3145
N9580 X1.1991 Y.3313
N9590 X1.1944 Y.348
N9600 X1.1894 Y.3646
N9610 X1.1842 Y.3812
N9620 X1.1787 Y.3977
N9630 X1.1731 Y.4141
N9640 X1.1672 Y.4305
N9650 X1.161 Y.4467
N9660 X1.1547 Y.4629
N9670 X1.1481 Y.479
N9680 X1.1413 Y.495
N9690 X1.1343 Y.5108
N9700 X1.127 Y.5266
N9710 X1.1196 Y.5423
N9720 X1.1119 Y.5579
N9730 X1.104 Y.5734
N9740 X1.0959 Y.5887
N9750 X1.0876 Y.604
N9760 X1.079 Y.6191
N9770 X1.0703 Y.6341
N9780 X1.0613 Y.649
N9790 X1.0521 Y.6638
N9800 X1.0428 Y.6784
N9810 X1.0332 Y.6929
N9820 X1.0234 Y.7072
N9830 X1.0134 Y.7215
N9840 X1.0033 Y.7355
N9850 X.9929 Y.7495
N9860 X.9823 Y.7633
N9870 X.9716 Y.7769
N9880 X.9606 Y.7904
N9890 X.9495 Y.8037
N9900 X.9382 Y.8169
N9910 X.9267 Y.83
N9920 X.915 Y.8428
N9930 X.9031 Y.8555
N9940 X.8911 Y.868
N9950 X.8789 Y.8804
N9960 X.8665 Y.8926
N9970 X.854 Y.9046
N9980 X.8413 Y.9164
N9990 X.8284 Y.9281
N100 X.8153 Y.9396
N110 X.8021 Y.9509
N120 X.7888 Y.962
N130 X.7753 Y.9729
N140 X.7616 Y.9836
N150 X.7478 Y.9942
N160 X.7338 Y1.0045
N170 X.7197 Y1.0147
N180 X.7055 Y1.0246
N190 X.6911 Y1.0344
N200 X.6766 Y1.0439
N210 X.662 Y1.0533
N220 X.6472 Y1.0624
N230 X.6323 Y1.0713
N240 X.6173 Y1.0801
N250 X.6021 Y1.0886
N260 X.5869 Y1.0969
N270 X.5715 Y1.105
N280 X.556 Y1.1128
N290 X.5404 Y1.1205
N300 X.5247 Y1.1279
N310 X.5089 Y1.1352
N320 X.493 Y1.1421
N330 X.477 Y1.1489
N340 X.4609 Y1.1555
N350 X.4447 Y1.1618
N360 X.4285 Y1.1679
N370 X.4121 Y1.1738
N380 X.3957 Y1.1794
N390 X.3792 Y1.1848
N400 X.3626 Y1.19
N410 X.346 Y1.1949
N420 X.3292 Y1.1997
N430 X.3124 Y1.2041
N440 X.2956 Y1.2084
N450 X.2787 Y1.2124
N460 X.2617 Y1.2162
N470 X.2447 Y1.2197
N480 X.2277 Y1.223
N490 X.2106 Y1.2261
N500 X.1934 Y1.2289
N510 X.1763 Y1.2315
N520 X.159 Y1.2338
N530 X.1418 Y1.2359
N540 X.1245 Y1.2378
N550 X.1072 Y1.2394
N560 X.0899 Y1.2408
N570 X.0726 Y1.2419
N580 X.0552 Y1.2428
N590 X.0379 Y1.2434
N600 X.0205 Y1.2438
N610 X.0031 Y1.244
N620 X-.0143 Y1.2439
N630 X-.0316 Y1.2436
N640 X-.049 Y1.243
N650 X-.0663 Y1.2422
N660 X-.0837 Y1.2412
N670 X-.101 Y1.2399
N680 X-.1183 Y1.2384
N690 X-.1356 Y1.2366
N700 X-.1528 Y1.2346
N710 X-.1701 Y1.2323
N720 X-.1873 Y1.2298
N730 X-.2044 Y1.2271
N740 X-.2215 Y1.2241
N750 X-.2386 Y1.2209
N760 X-.2556 Y1.2175
N770 X-.2726 Y1.2138
N780 X-.2895 Y1.2099
N790 X-.3064 Y1.2057
N800 X-.3232 Y1.2013
N810 X-.34 Y1.1967
N820 X-.3566 Y1.1918
N830 X-.3732 Y1.1867
N840 X-.3898 Y1.1814
N850 X-.4062 Y1.1758
N860 X-.4226 Y1.17
N870 X-.4389 Y1.164
N880 X-.4551 Y1.1578
N890 X-.4713 Y1.1513
N900 X-.4873 Y1.1446
N910 X-.5032 Y1.1377
N920 X-.5191 Y1.1306
N930 X-.5348 Y1.1232
N940 X-.5504 Y1.1156
N950 X-.566 Y1.1078
N960 X-.5814 Y1.0998
N970 X-.5967 Y1.0916
N980 X-.6119 Y1.0831
N990 X-.6269 Y1.0745
N1000 X-.6419 Y1.0656
N1010 X-.6567 Y1.0566
N1020 X-.6714 Y1.0473
N1030 X-.6859 Y1.0378
N1040 X-.7004 Y1.0281
N1050 X-.7146 Y1.0183
N1060 X-.7288 Y1.0082
N1070 X-.7428 Y.9979
N1080 X-.7567 Y.9874
N1090 X-.7704 Y.9768
N1100 X-.7839 Y.9659
N1110 X-.7974 Y.9549
N1120 X-.8106 Y.9436
N1130 X-.8237 Y.9322
N1140 X-.8367 Y.9206
N1150 X-.8494 Y.9089
N1160 X-.862 Y.8969
N1170 X-.8745 Y.8848
N1180 X-.8868 Y.8725
N1190 X-.8988 Y.86
N1200 X-.9108 Y.8474
N1210 X-.9225 Y.8346
N1220 X-.9341 Y.8216
N1230 X-.9455 Y.8085
N1240 X-.9567 Y.7952
N1250 X-.9677 Y.7818
N1260 X-.9785 Y.7682
N1270 X-.9891 Y.7544
N1280 X-.9996 Y.7406
N1290 X-1.0098 Y.7265
N1300 X-1.0199 Y.7124
N1310 X-1.0297 Y.698
N1320 X-1.0394 Y.6836
N1330 X-1.0488 Y.669
N1340 X-1.058 Y.6543
N1350 X-1.0671 Y.6395
N1360 X-1.0759 Y.6245
N1370 X-1.0845 Y.6094
N1380 X-1.0929 Y.5942
N1390 X-1.1011 Y.5789
N1400 X-1.1091 Y.5635
N1410 X-1.1168 Y.5479
N1420 X-1.1244 Y.5323
N1430 X-1.1317 Y.5165
N1440 X-1.1388 Y.5007
N1450 X-1.1457 Y.4847
N1460 X-1.1524 Y.4687
N1470 X-1.1588 Y.4525
N1480 X-1.165 Y.4363
N1490 X-1.171 Y.42
N1500 X-1.1767 Y.4036
N1510 X-1.1822 Y.3871
N1520 X-1.1875 Y.3706
N1530 X-1.1926 Y.354
N1540 X-1.1974 Y.3373
N1550 X-1.202 Y.3205
N1560 X-1.2064 Y.3037
N1570 X-1.2105 Y.2868
N1580 X-1.2144 Y.2699
N1590 X-1.218 Y.2529
N1600 X-1.2214 Y.2359
N1610 X-1.2246 Y.2188
N1620 X-1.2276 Y.2017
N1630 X-1.2303 Y.1845
N1640 X-1.2327 Y.1673
N1650 X-1.2349 Y.1501
N1660 X-1.2369 Y.1328
N1670 X-1.2386 Y.1155
N1680 X-1.2401 Y.0982
N1690 X-1.2414 Y.0809
N1700 X-1.2424 Y.0636
N1710 X-1.2432 Y.0462
N1720 X-1.2437 Y.0288
N1730 X-1.244 Y.0115
N1740 Y-.0059
N1750 X-1.2438 Y-.0233
N1760 X-1.2433 Y-.0406
N1770 X-1.2427 Y-.058
N1780 X-1.2417 Y-.0754
N1790 X-1.2406 Y-.0927
N1800 X-1.2391 Y-.11
N1810 X-1.2375 Y-.1273
N1820 X-1.2356 Y-.1446
N1830 X-1.2334 Y-.1618
N1840 X-1.2311 Y-.179
N1850 X-1.2284 Y-.1962
N1860 X-1.2256 Y-.2133
N1870 X-1.2225 Y-.2304
N1880 X-1.2192 Y-.2475
N1890 X-1.2156 Y-.2645
N1900 X-1.2118 Y-.2814
N1910 X-1.2077 Y-.2983
N1920 X-1.2034 Y-.3151
N1930 X-1.1989 Y-.3319
N1940 X-1.1942 Y-.3486
N1950 X-1.1892 Y-.3653
N1960 X-1.184 Y-.3818
N1970 X-1.1785 Y-.3983
N1980 X-1.1728 Y-.4148
N1990 X-1.1669 Y-.4311
N2000 X-1.1608 Y-.4473
N2010 X-1.1544 Y-.4635
N2020 X-1.1479 Y-.4796
N2030 X-1.141 Y-.4956
N2040 X-1.134 Y-.5115
N2050 X-1.1268 Y-.5272
N2060 X-1.1193 Y-.5429
N2070 X-1.1116 Y-.5585
N2080 X-1.1037 Y-.574
N2090 X-1.0956 Y-.5893
N2100 X-1.0873 Y-.6045
N2110 X-1.0788 Y-.6194
N2120 X-1.0701 Y-.6342
N2130 X-1.0612 Y-.6487
N2140 X-1.0521 Y-.663
N2150 X-1.0429 Y-.677
N2160 X-1.0333 Y-.6908
N2170 X-1.0236 Y-.7043
N2180 X-1.0136 Y-.7177
N2190 X-1.0034 Y-.7307
N2200 X-.9929 Y-.7436
N2210 X-.9821 Y-.7562
N2220 X-.9711 Y-.7685
N2230 X-.9598 Y-.7807
N2240 X-.9483 Y-.7926
N2250 X-.9365 Y-.8043
N2260 X-.9244 Y-.8157
N2270 X-.9121 Y-.827
N2280 X-.8996 Y-.8379
N2290 X-.8868 Y-.8487
N2300 X-.8738 Y-.8592
N2310 X-.8605 Y-.8695
N2320 X-.8471 Y-.8795
N2330 X-.8334 Y-.8893
N2340 X-.8195 Y-.8988
N2350 X-.8055 Y-.9081
N2360 X-.7912 Y-.9172
N2370 X-.7768 Y-.926
N2380 X-.7621 Y-.9345
N2390 X-.7474 Y-.9428
N2400 X-.7324 Y-.9509
N2410 X-.7173 Y-.9587
N2420 X-.7021 Y-.9662
N2430 X-.6867 Y-.9735
N2440 X-.6712 Y-.9805
N2450 X-.6555 Y-.9873
N2460 X-.6397 Y-.9938
N2470 X-.6238 Y-1.
N2480 X-.6078 Y-1.006
N2490 X-.5917 Y-1.0117
N2500 X-.5755 Y-1.0172
N2510 X-.5592 Y-1.0224
N2520 X-.5428 Y-1.0273
N2530 X-.5264 Y-1.032
N2540 X-.5098 Y-1.0364
N2550 X-.4932 Y-1.0405
N2560 X-.4765 Y-1.0443
N2570 X-.4597 Y-1.0479
N2580 X-.4429 Y-1.0512
N2590 X-.4261 Y-1.0543
N2600 X-.4091 Y-1.0571
N2610 X-.3922 Y-1.0596
N2620 X-.3752 Y-1.0618
N2630 X-.3581 Y-1.0638
N2640 X-.3411 Y-1.0654
N2650 X-.324 Y-1.0668
N2660 X-.3069 Y-1.068
N2670 X-.2898 Y-1.0688
N2680 X-.2727 Y-1.0694
N2690 X-.2555 Y-1.0697
N2700 X-.2384 Y-1.0698
N2710 X-.2212 Y-1.0695
N2720 X-.2041 Y-1.069
N2730 X-.187 Y-1.0682
N2740 X-.1699 Y-1.0672
N2750 X-.1528 Y-1.0658
N2760 X-.1358 Y-1.0642
N2770 X-.1188 Y-1.0623
N2780 X-.1018 Y-1.0601
N2790 X-.0848 Y-1.0577
N2800 X-.0679 Y-1.0549
N2810 X-.051 Y-1.0519
N2820 X-.0341 Y-1.0487
N2830 X-.0173 Y-1.0451
N2840 X-.0004 Y-1.0413
N2850 X.0164 Y-1.0373
N2860 X.0332 Y-1.0329
N2870 X.0501 Y-1.0284
N2880 X.0669 Y-1.0236
N2890 X.0836 Y-1.0186
N2900 X.1004 Y-1.0133
N2910 X.1171 Y-1.0079
N2920 X.1338 Y-1.0022
N2930 X.1505 Y-.9964
N2940 X.1671 Y-.9903
N2950 X.1837 Y-.9841
N2960 X.2002 Y-.9776
N2970 X.2166 Y-.971
N2980 X.233 Y-.9643
N2990 X.2493 Y-.9573
N3000 X.2656 Y-.9502
N3010 X.2817 Y-.9429
N3020 X.2978 Y-.9354
N3030 X.3138 Y-.9278
N3040 X.3297 Y-.92
N3050 X.3454 Y-.912
N3060 X.3611 Y-.9039
N3070 X.3766 Y-.8956
N3080 X.3921 Y-.8871
N3090 X.4074 Y-.8785
N3100 X.4225 Y-.8697
N3110 X.4376 Y-.8607
N3120 X.4525 Y-.8515
N3130 X.4672 Y-.8422
N3140 X.4818 Y-.8327
N3150 X.4963 Y-.823
N3160 X.5106 Y-.8131
N3170 X.5247 Y-.803
N3180 X.5387 Y-.7927
N3190 X.5525 Y-.7823
N3200 X.5661 Y-.7717
N3210 X.5795 Y-.7609
N3220 X.5928 Y-.7499
N3230 X.6059 Y-.7387
N3240 X.6188 Y-.7273
N3250 X.6315 Y-.7157
N3260 X.644 Y-.704
N3270 X.6563 Y-.692
N3280 X.6684 Y-.6799
N3290 X.6802 Y-.6676
N3300 X.6919 Y-.6551
N3310 X.7034 Y-.6424
N3320 X.7146 Y-.6295
N3330 X.7256 Y-.6165
N3340 X.7364 Y-.6033
N3350 X.7469 Y-.5899
N3360 X.7572 Y-.5763
N3370 X.7673 Y-.5626
N3380 X.7772 Y-.5487
N3390 X.7868 Y-.5347
N3400 X.7961 Y-.5205
N3410 X.8052 Y-.5061
N3420 X.814 Y-.4916
N3430 X.8226 Y-.4769
N3440 X.831 Y-.4622
N3450 X.839 Y-.4472
N3460 X.8468 Y-.4321
N3470 X.8544 Y-.4169
N3480 X.8616 Y-.4016
N3490 X.8686 Y-.3861
N3500 X.8753 Y-.3705
N3510 X.8818 Y-.3548
N3520 X.8879 Y-.339
N3530 X.8938 Y-.3231
N3540 X.8994 Y-.3071
N3550 X.9047 Y-.291
N3560 X.9098 Y-.2748
N3570 X.9145 Y-.2585
N3580 X.919 Y-.2422
N3590 X.9231 Y-.2258
N3600 X.927 Y-.2093
N3610 X.9306 Y-.1927
N3620 X.9338 Y-.1761
N3630 X.9368 Y-.1594
N3640 X.9395 Y-.1426
N3650 X.9419 Y-.1259
N3660 X.944 Y-.1091
N3670 X.9458 Y-.0922
N3680 X.9473 Y-.0753
N3690 X.9485 Y-.0584
N3700 X.9493 Y-.0415
N3710 X.9499 Y-.0246
N3720 X.9502 Y-.0076
N3730 Y.0093
N3740 X.9499 Y.0263
N3750 X.9492 Y.0432
N3760 X.9483 Y.0601
N3770 X.9471 Y.077
N3780 X.9456 Y.0939
N3790 X.9437 Y.1107
N3800 X.9416 Y.1275
N3810 X.9392 Y.1443
N3820 X.9365 Y.1611
N3830 X.9335 Y.1777
N3840 X.9301 Y.1943
N3850 X.9265 Y.2109
N3860 X.9226 Y.2274
N3870 X.9184 Y.2438
N3880 X.9139 Y.2601
N3890 X.9091 Y.2764
N3900 X.9041 Y.2925
N3910 X.8987 Y.3086
N3920 X.8931 Y.3246
N3930 X.8871 Y.3405
N3940 X.8809 Y.3562
N3950 X.8744 Y.3719
N3960 X.8677 Y.3874
N3970 X.8606 Y.4028
N3980 X.8533 Y.4181
N3990 X.8457 Y.4332
N4000 X.8378 Y.4483
N4010 X.8297 Y.4631
N4020 X.8213 Y.4778
N4030 X.8127 Y.4924
N4040 X.8038 Y.5068
N4050 X.7946 Y.5211
N4060 X.7852 Y.5351
N4070 X.7755 Y.5491
N4080 X.7656 Y.5628
N4090 X.7555 Y.5764
N4100 X.7451 Y.5897
N4110 X.7344 Y.6029
N4120 X.7236 Y.6159
N4130 X.7125 Y.6287
N4140 X.7011 Y.6413
N4150 X.6896 Y.6537
N4160 X.6778 Y.6659
N4170 X.6658 Y.6779
N4180 X.6536 Y.6897
N4190 X.6412 Y.7012
N4200 X.6286 Y.7125
N4210 X.6158 Y.7236
N4220 X.6028 Y.7345
N4230 X.5897 Y.7451
N4240 X.5763 Y.7555
N4250 X.5627 Y.7657
N4260 X.549 Y.7756
N4270 X.5351 Y.7852
N4280 X.521 Y.7947
N4290 X.5067 Y.8038
N4300 X.4923 Y.8127
N4310 X.4777 Y.8214
N4320 X.463 Y.8298
N4330 X.4481 Y.8379
N4340 X.4331 Y.8458
N4350 X.418 Y.8533
N4360 X.4027 Y.8607
N4370 X.3873 Y.8677
N4380 X.3718 Y.8745
N4390 X.3561 Y.881
N4400 X.3403 Y.8872
N4410 X.3245 Y.8931
N4420 X.3085 Y.8987
N4430 X.2924 Y.9041
N4440 X.2763 Y.9092
N4450 X.26 Y.9139
N4460 X.2437 Y.9184
N4470 X.2273 Y.9226
N4480 X.2108 Y.9265
N4490 X.1942 Y.9301
N4500 X.1776 Y.9335
N4510 X.1609 Y.9365
N4520 X.1442 Y.9392
N4530 X.1274 Y.9416
N4540 X.1106 Y.9437
N4550 X.0938 Y.9456
N4560 X.0769 Y.9471
N4570 X.06 Y.9483
N4580 X.0431 Y.9492
N4590 X.0262 Y.9499
N4600 X.0092 Y.9502
N4610 X-.0077
N4620 X-.0247 Y.9499
N4630 X-.0416 Y.9493
N4640 X-.0585 Y.9484
N4650 X-.0754 Y.9472
N4660 X-.0923 Y.9457
N4670 X-.1091 Y.9439
N4680 X-.1259 Y.9418
N4690 X-.1427 Y.9394
N4700 X-.1594 Y.9367
N4710 X-.1761 Y.9337
N4720 X-.1927 Y.9305
N4730 X-.2093 Y.9269
N4740 X-.2258 Y.923
N4750 X-.2422 Y.9188
N4760 X-.2586 Y.9144
N4770 X-.2748 Y.9096
N4780 X-.291 Y.9046
N4790 X-.3071 Y.8992
N4800 X-.3231 Y.8936
N4810 X-.3389 Y.8877
N4820 X-.3547 Y.8815
N4830 X-.3704 Y.8751
N4840 X-.3859 Y.8683
N4850 X-.4013 Y.8613
N4860 X-.4166 Y.854
N4870 X-.4318 Y.8464
N4880 X-.4468 Y.8386
N4890 X-.4617 Y.8305
N4900 X-.4764 Y.8221
N4910 X-.491 Y.8135
N4920 X-.5054 Y.8046
N4930 X-.5197 Y.7955
N4940 X-.5338 Y.7861
N4950 X-.5477 Y.7765
N4960 X-.5615 Y.7666
N4970 X-.5751 Y.7564
N4980 X-.5885 Y.7461
N4990 X-.6017 Y.7355
N5000 X-.6147 Y.7246
N5010 X-.6275 Y.7135
N5020 X-.6401 Y.7022
N5030 X-.6525 Y.6907
N5040 X-.6648 Y.679
N5050 X-.6768 Y.667
N5060 X-.6885 Y.6548
N5070 X-.7001 Y.6425
N5080 X-.7115 Y.6299
N5090 X-.7226 Y.6171
N5100 X-.7335 Y.6041
N5110 X-.7441 Y.5909
N5120 X-.7545 Y.5776
N5130 X-.7647 Y.564
N5140 X-.7746 Y.5503
N5150 X-.7843 Y.5364
N5160 X-.7938 Y.5223
N5170 X-.803 Y.5081
N5180 X-.8119 Y.4937
N5190 X-.8206 Y.4791
N5200 X-.829 Y.4644
N5210 X-.8371 Y.4496
N5220 X-.845 Y.4346
N5230 X-.8526 Y.4194
N5240 X-.86 Y.4042
N5250 X-.867 Y.3888
N5260 X-.8738 Y.3733
N5270 X-.8803 Y.3576
N5280 X-.8866 Y.3419
N5290 X-.8925 Y.326
N5300 X-.8982 Y.31
N5310 X-.9036 Y.294
N5320 X-.9087 Y.2778
N5330 X-.9135 Y.2616
N5340 X-.918 Y.2452
N5350 X-.9222 Y.2288
N5360 X-.9262 Y.2124
N5370 X-.9298 Y.1958
N5380 X-.9332 Y.1792
N5390 X-.9362 Y.1625
N5400 X-.939 Y.1458
N5410 X-.9414 Y.129
N5420 X-.9436 Y.1123
N5430 X-.9454 Y.0954
N5440 X-.947 Y.0785
N5450 X-.9482 Y.0616
N5460 X-.9492 Y.0447
N5470 X-.9498 Y.0278
N5480 X-.9501 Y.0109
N5490 X-.9502 Y-.0061
N5500 X-.9499 Y-.023
N5510 X-.9494 Y-.04
N5520 X-.9485 Y-.0569
N5530 X-.9473 Y-.0738
N5540 X-.9459 Y-.0907
N5550 X-.9441 Y-.1075
N5560 X-.942 Y-.1243
N5570 X-.9397 Y-.1411
N5580 X-.937 Y-.1578
N5590 X-.934 Y-.1745
N5600 X-.9308 Y-.1911
N5610 X-.9272 Y-.2077
N5620 X-.9234 Y-.2242
N5630 X-.9192 Y-.2406
N5640 X-.9148 Y-.257
N5650 X-.9101 Y-.2732
N5660 X-.9051 Y-.2894
N5670 X-.8998 Y-.3055
N5680 X-.8942 Y-.3215
N5690 X-.8883 Y-.3374
N5700 X-.8821 Y-.3531
N5710 X-.8757 Y-.3687
N5720 X-.8691 Y-.3841
N5730 X-.8621 Y-.3992
N5740 X-.8549 Y-.4141
N5750 X-.8474 Y-.4287
N5760 X-.8397 Y-.4431
N5770 X-.8317 Y-.4571
N5780 X-.8233 Y-.4709
N5790 X-.8147 Y-.4844
N5800 X-.8058 Y-.4977
N5810 X-.7965 Y-.5106
N5820 X-.787 Y-.5232
N5830 X-.7771 Y-.5356
N5840 X-.7669 Y-.5477
N5850 X-.7563 Y-.5596
N5860 X-.7455 Y-.5711
N5870 X-.7343 Y-.5823
N5880 X-.7228 Y-.5933
N5890 X-.711 Y-.604
N5900 X-.6989 Y-.6144
N5910 X-.6865 Y-.6245
N5920 X-.6739 Y-.6342
N5930 X-.6609 Y-.6437
N5940 X-.6477 Y-.6529
N5950 X-.6343 Y-.6617
N5960 X-.6206 Y-.6703
N5970 X-.6067 Y-.6785
N5980 X-.5925 Y-.6864
N5990 X-.5781 Y-.6939
N6000 X-.5636 Y-.7011
N6010 X-.5488 Y-.708
N6020 X-.5339 Y-.7146
N6030 X-.5188 Y-.7208
N6040 X-.5035 Y-.7267
N6050 X-.4881 Y-.7322
N6060 X-.4726 Y-.7374
N6070 X-.4569 Y-.7423
N6080 X-.4411 Y-.7468
N6090 X-.4252 Y-.7509
N6100 X-.4092 Y-.7547
N6110 X-.3932 Y-.7581
N6120 X-.377 Y-.7612
N6130 X-.3608 Y-.764
N6140 X-.3445 Y-.7663
N6150 X-.3281 Y-.7684
N6160 X-.3117 Y-.77
N6170 X-.2953 Y-.7713
N6180 X-.2789 Y-.7723
N6190 X-.2624 Y-.7729
N6200 X-.2459 Y-.7731
N6210 X-.2294 Y-.773
N6220 X-.2129 Y-.7725
N6230 X-.1964 Y-.7716
N6240 X-.1799 Y-.7704
N6250 X-.1633 Y-.7689
N6260 X-.1467 Y-.767
N6270 X-.1301 Y-.7648
N6280 X-.1135 Y-.7623
N6290 X-.0969 Y-.7594
N6300 X-.0803 Y-.7562
N6310 X-.0637 Y-.7527
N6320 X-.047 Y-.7489
N6330 X-.0304 Y-.7449
N6340 X-.0139 Y-.7405
N6350 X.0027 Y-.7359
N6360 X.0192 Y-.731
N6370 X.0356 Y-.7258
N6380 X.052 Y-.7204
N6390 X.0684 Y-.7147
N6400 X.0846 Y-.7088
N6410 X.1008 Y-.7027
N6420 X.1169 Y-.6963
N6430 X.1329 Y-.6897
N6440 X.1488 Y-.6829
N6450 X.1646 Y-.6758
N6460 X.1803 Y-.6685
N6470 X.1958 Y-.661
N6480 X.2112 Y-.6533
N6490 X.2264 Y-.6453
N6500 X.2415 Y-.6371
N6510 X.2564 Y-.6287
N6520 X.2712 Y-.6201
N6530 X.2858 Y-.6112
N6540 X.3002 Y-.6022
N6550 X.3144 Y-.5928
N6560 X.3284 Y-.5833
N6570 X.3421 Y-.5736
N6580 X.3557 Y-.5636
N6590 X.369 Y-.5533
N6600 X.3821 Y-.5429
N6610 X.395 Y-.5322
N6620 X.4076 Y-.5213
N6630 X.42 Y-.5102
N6640 X.4321 Y-.4988
N6650 X.444 Y-.4872
N6660 X.4556 Y-.4754
N6670 X.4669 Y-.4634
N6680 X.4779 Y-.4511
N6690 X.4887 Y-.4387
N6700 X.4991 Y-.426
N6710 X.5092 Y-.4131
N6720 X.5191 Y-.4
N6730 X.5286 Y-.3867
N6740 X.5378 Y-.3732
N6750 X.5467 Y-.3595
N6760 X.5552 Y-.3456
N6770 X.5635 Y-.3316
N6780 X.5713 Y-.3173
N6790 X.5789 Y-.3029
N6800 X.5861 Y-.2883
N6810 X.5929 Y-.2736
N6820 X.5994 Y-.2587
